!!!!SEGMENT: pl-kk--kk-i-626--001-003_lisinski-karol--vesperae-beatus-vir.krn
!!!cenid: 18xx:4608
!!!COM: Lisiński, Karol
!!!COM-rismID: pe50053612
!!!CDT:
!!!CNT: Polish
!!!OPR: Vesperae
!!!OTL: Beatus vir
!!!OMV: 003
!!!PDT:
!!!AGN: Sacred; Vespers
!!!YEC: Copyright 2022 Narodowy Instytut Fryderyka Chopina (https://polishscores.org)
!!!YEM: License CC-BY-4.0 (https://creativecommons.org/licenses/by/4.0)
!!!SMS-siglum: PL-Kk
!!!SMS-shelfmark: Kk.I.626
!!!SMS-variant: Violino Primo: Kk.I.626: 31; Violino Secundo: Kk.I.626: 41
!!!SMS-altvar: Violino Primo: Kk.I.626: 25-26; Kk.I.626: Violino Secundo: 35-36
!!!SMS-shelfwork: 001-003 M
!!!NIFC-rismSourceID: 1001210167
!!!NIFC-rismChildID: 1001210167
!!!NIFC-islandoraID: pl-kk:20059
!!!URL-pdf-islandora: https://repozytorium.nifc.pl/islandora/object/pl-kk:20059/datastream/PDF/view
!!!URL-scan: https://polish.musicsources.pl/pl/lokalizacje/galeria/rekopisy/7260/2 @EN{Scan on Polish Music Sources Website} @PL{Skany w portalu Dziedzictwo Muzyki Polskiej w otwartym dostępie}
!!!IIIF:
!!!ONB-nifc: UWAGA: Części Nieszporów: 1. Dixit Dominus, 2. Confitebor, 3. Beatus vir, 4. Laudate pueri, 5. Laudate Dominum, 6. Magnificat. Gloria wchodzi w ramy ww. części. do Uwaga: Partia Organo na skanach 57-59 i 2. Uwaga: Violino Primo i Secundo wg odpisów spisanych ręką tą samą co reszta partii (s. 29-33 i 39-44). Proszę uzupełnić pola SMS:variant i SMS:altvar.
!!!AIN: 1 alto 1 bass 1 canto 2 clrno 1 organ 1 tenor 1 viole 2 violn
!!!key:
**kern	**fba	**kern	**kern	**dynam	**kern	**dynam	**kern	**text	**kern	**text	**kern	**text	**kern	**text	**kern	**kern
*part10	*	*part9	*part8	*part8	*part7	*part7	*part6	*part6	*part5	*part5	*part4	*part4	*part3	*part3	*part2	*part1
*staff10	*	*staff9	*staff8	*	*staff7	*	*staff6	*staff6	*staff5	*staff5	*staff4	*staff4	*staff3	*staff3	*staff2	*staff1
*I"Organo	*	*I"Violone	*I"Violino Secundo	*	*I"Violino Primo	*	*I"Baſso.	*	*I"Tenore.	*	*I"Alto	*	*I"Canto	*	*I"Clarino Secundo ex e	*I"Clarino Primo ex e
*I'org	*	*I'V-ne	*I'vl 2	*	*I'vl 1	*	*I'B	*	*I'T	*	*I'A	*	*I'C	*	*I'cln 2 in e	*I'cln 1 in e
*Iorgan	*	*Iviole	*Ivioln	*	*Ivioln	*	*Ibass	*	*Itenor	*	*Ialto	*	*Icanto	*	*Iclrno	*Iclrno
*ICklav	*	*ICstr	*ICstr	*	*ICstr	*	*ICvox	*	*ICvox	*	*ICvox	*	*ICvox	*	*ICbras	*ICbras
*clefF4	*	*clefFv4	*clefG2	*	*clefG2	*	*clefF4	*	*clefC4	*	*clefC3	*	*clefC1	*	*clefG2	*clefG2
*	*	*	*	*	*	*	*	*	*	*	*	*	*	*	*ITrd-2c-4	*ITrd-2c-4
*k[f#c#g#d#]	*	*k[f#c#g#d#]	*k[f#c#g#d#]	*	*k[f#c#g#d#]	*	*k[f#c#g#]	*	*k[f#c#g#]	*	*k[f#c#g#]	*	*k[f#g#c#]	*	*k[f#c#g#d#]	*k[f#c#g#d#]
*E:	*	*E:	*E:	*	*E:	*	*E:	*	*E:	*	*E:	*	*E:	*	*E:	*E:
*M4/4	*	*M4/4	*M4/4	*	*M4/4	*	*M4/4	*	*M4/4	*	*M4/4	*	*M4/4	*	*M4/4	*M4/4
*met(c)	*	*met(c)	*met(c)	*	*met(c)	*	*met(c)	*	*met(c)	*	*met(c)	*	*met(c)	*	*met(c)	*met(c)
=1	=1	=1	=1	=1	=1	=1	=1	=1	=1	=1	=1	=1	=1	=1	=1	=1
!	!	!LO:TX:t=P:problem:cztery krzyżyki	!	!	!LO:TX:a:t=Solo Poco Vivace	!	!	!	!	!	!	!	!LO:TX:a:t=Solo	!	!	!
!LO:TX:a:t=Vivace Solo	!	!LO:TX:a:t=vivace Solo	!LO:TX:t=P:problem:cztery krzyżyki	!	!LO:TX:t=P:problem:cztery krzyżyki	!LO:DY:a:t=pia&colon;	!LO:TX:b:t=Beatus Vir	!	!LO:TX:b:t=Beatus vir	!	!	!	!LO:TX:t=P:problem:na początku są niby 4 krzyżyki, ale już od następnego systemu są 3	!	!LO:TX:a:t=ex e	!LO:TX:a:t=ex e
!LO:TX:b:t=Beatus vir	!	!LO:TX:b:t=Beatus	!LO:TX:b:t=Beatus	!LO:DY:a	!LO:TX:b:t=Beatus vir	!	!	!	!	!	!	!	!	!	!LO:TX:b:t=Beatus vir	!LO:TX:b:t=Beatus vir
8E\	.	8EE\	8g#/	p	8b/	p	8r	.	8r	.	8r	.	8b\	Be-	8r	8r
=2	=2	=2	=2	=2	=2	=2	=2	=2	=2	=2	=2	=2	=2	=2	=2	=2
8E\L	.	8EE\L	8g#/L	.	16b/LL	.	0r	.	0r	.	0r	.	16b\LL	-a-	00r	00r
.	.	.	.	.	16a/	.	.	.	.	.	.	.	16a\JJ	.	.	.
8F#\	.	8FF#\	8a/	.	16g#/	.	.	.	.	.	.	.	16g#/LL	-tus	.	.
.	.	.	.	.	16f#/JJ	.	.	.	.	.	.	.	16f#/JJ	.	.	.
!	!	!	!	!	!LO:TX:t=P:problem:mixed beam	!	!	!	!	!	!	!	!	!	!	!
8G#\	.	8GG#\	8b/	.	8e/L	.	.	.	.	.	.	.	8e/	Viro	.	.
8E\J	.	8EE\J	8a/J	.	8ee\	.	.	.	.	.	.	.	8ee\	qui	.	.
8B\L	#	8BB\L	8f#/L	.	8dd#X\	.	.	.	.	.	.	.	8dd#X\	ti-	.	.
16E\L	.	16EE\L	8g#/	.	8ee\J	.	.	.	.	.	.	.	8ee\	-met	.	.
16F#\J	.	16FF#\J	.	.	.	.	.	.	.	.	.	.	.	.	.	.
8G#\	6	8GG#\	16a/L	.	8r	.	.	.	.	.	.	.	8r	.	.	.
.	.	.	16b/J	.	.	.	.	.	.	.	.	.	.	.	.	.
8E\J	.	8EE\J	8g#/J	.	8b/	.	.	.	.	.	.	.	8b\	qui	.	.
=3	=3	=3	=3	=3	=3	=3	=3	=3	=3	=3	=3	=3	=3	=3	=3	=3
8A\L	.	8AA\L	8e/L	.	16cc#/LL	.	.	.	.	.	.	.	8cc#\	ti-	.	.
.	.	.	.	.	16e/	.	.	.	.	.	.	.	.	.	.	.
8G#\	.	8GG#\	8e/	.	16b/	.	.	.	.	.	.	.	8b\	-met	.	.
.	.	.	.	.	16e/JJ	.	.	.	.	.	.	.	.	.	.	.
8F#\	7	8FF#\	8e/	.	8.aT\L	.	.	.	.	.	.	.	8.a\	Do-	.	.
8B\J	#7	8BB\J	8d#X/J	.	.	.	.	.	.	.	.	.	.	.	.	.
.	.	.	.	.	16b\Jk	.	.	.	.	.	.	.	16a\	-mi-	.	.
8E\L	.	8EE\L	8e/L	.	4g#/	.	.	.	.	.	.	.	4g#\	-num	.	.
8F#\	.	8FF#\	16g#/L	.	.	.	.	.	.	.	.	.	.	.	.	.
.	.	.	16a/J	.	.	.	.	.	.	.	.	.	.	.	.	.
!	!	!	!	!	!	!	!	!	!	!	!	!	!LO:LB:g=original	!	!	!
8G#\	6	8GG#\	8b/	.	8r	.	.	.	.	.	.	.	8r	.	.	.
8E\J	.	8EE\J	8e/J	.	8b\	.	.	.	.	.	.	.	16b\	in	.	.
.	.	.	.	.	.	.	.	.	.	.	.	.	16b\	man-	.	.
=4	=4	=4	=4	=4	=4	=4	=4	=4	=4	=4	=4	=4	=4	=4	=4	=4
8A\L	.	8AA\L	8e/L	.	16cc#\LL	.	1r	.	1r	.	1r	.	8cc#\	-da-	.	.
.	.	.	.	.	16a\	.	.	.	.	.	.	.	.	.	.	.
8A\	.	8AA\	8e/	.	16a\	.	.	.	.	.	.	.	8a\	-tus	.	.
.	.	.	.	.	16a\JJ	.	.	.	.	.	.	.	.	.	.	.
!	!	!	!LO:LB:g=original	!	!LO:LB:g=original	!	!	!	!	!	!	!	!	!	!	!
8B\	#7	8BB\	8d#X/	.	16dd#\LL	.	.	.	.	.	.	.	8dd#X\	e-	.	.
.	.	.	.	.	16a\	.	.	.	.	.	.	.	.	.	.	.
8B\J	.	8BB\J	8a/J	.	16a\	.	.	.	.	.	.	.	8dd#\	-jus	.	.
.	.	.	.	.	16a\JJ	.	.	.	.	.	.	.	.	.	.	.
!	!	!LO:LB:g=original	!	!	!	!	!	!	!	!	!	!	!	!	!	!
!LO:TX:t=P:problem:mixed beam	!	!LO:TX:t=P:problem:mixed beam	!	!	!	!	!	!	!	!	!	!	!	!	!	!
8c#\L	-5	8C#\L	8a/L	.	16ee\LL	.	.	.	.	.	.	.	8ee\	vo-	.	.
.	.	.	.	.	16a\	.	.	.	.	.	.	.	.	.	.	.
8C#/J	.	8CC#/J	8a/	.	16a\	.	.	.	.	.	.	.	8cc#\	-let	.	.
.	.	.	.	.	16a\JJ	.	.	.	.	.	.	.	.	.	.	.
*	*	*	*	*	*	*	*	*	*	*	*	*	*	*ij	*	*
8D#X\L	56	8DD#X\L	8f#/	.	16ff#\LL	.	.	.	.	.	.	.	8ff#\	vo-	.	.
.	.	.	.	.	16a\	.	.	.	.	.	.	.	.	.	.	.
8D#\J	.	8DD#\J	8f#/J	.	16a\	.	.	.	.	.	.	.	8a\	-let	.	.
.	.	.	.	.	16a\JJ	.	.	.	.	.	.	.	.	.	.	.
*	*	*	*	*	*	*	*	*	*	*	*	*	*	*Xij	*	*
!LO:LB:g=original	!	!	!	!	!	!	!	!	!	!	!	!	!	!	!	!
=5	=5	=5	=5	=5	=5	=5	=5	=5	=5	=5	=5	=5	=5	=5	=5	=5
!LO:TX:t=P:problem:mixed beam	!	!LO:TX:t=P:problem:mixed beam	!	!	!	!	!	!	!	!	!	!	!	!	!	!
8E/L	.	8EE/L	8e/L	.	16g#/LL	.	2r	.	2r	.	2r	.	16g#\LL	ni-	.	.
.	.	.	.	.	16b/	.	.	.	.	.	.	.	16b\	.	.	.
8A/	56	8AA/	8e/	.	16a/	.	.	.	.	.	.	.	16a\	.	.	.
.	.	.	.	.	16g#/JJ	.	.	.	.	.	.	.	16g#\JJ	.	.	.
8B/	4	8BB/	8.e/	.	8.g#/L	.	.	.	.	.	.	.	4f#/	.	.	.
8BB\J	#	8BBB\J	.	.	.	.	.	.	.	.	.	.	.	.	.	.
.	.	.	16d#X/Jk	.	16f#/Jk	.	.	.	.	.	.	.	.	.	.	.
!LO:TX:a:t=|	!	!	!	!	!LO:TX:b:t=|	!	!	!	!	!	!	!	!	!	!	!
8E\L	.	8EE\L	8e/L	.	8e/L	.	4r	.	4r	.	4r	.	4e/	-mis	.	.
!LO:TX:a:t=|	!	!	!	!	!LO:TX:b:t=|	!	!	!	!	!	!	!	!	!	!	!
8G#\	.	8GG#\	8g#/	.	8g#/	.	.	.	.	.	.	.	.	.	.	.
!LO:TX:a:t=|	!	!	!	!	!LO:TX:b:t=|	!	!	!	!	!	!	!	!	!	!	!
8A\	.	8AA\	8a/	.	8a/	.	8r	.	8r	.	8r	.	8r	.	.	.
!LO:TX:a:t=|	!	!	!	!	!LO:TX:b:t=|	!	!	!	!	!	!	!	!	!	!	!
8B\J	.	8BB\J	8b/J	.	8b/J	.	8BB/	Po-	8B\	Po-	8f#\	Po-	8b\	po-	.	.
=6	=6	=6	=6	=6	=6	=6	=6	=6	=6	=6	=6	=6	=6	=6	=6	=6
!LO:TX:a:t=Tutti	!	!LO:TX:a:t=T&colon;	!	!	!	!LO:DY:a:t=for&colon;	!	!	!	!	!	!	!	!	!	!
8E\L	.	8EE\L	16ee\LL	.	16b/LL	f	8E\	-tens	8B\	-tens	8g#\	-tens	16b\LL	-tens	8.ee\L	8.gg#\L
.	.	.	16ee\	.	16a/	.	.	.	.	.	.	.	16a\JJ	.	.	.
!	!	!	!	!	!	!	!	!	!	!	!	!	!LO:LB:g=original	!	!	!
8F#\	.	8FF#\	16ee\	.	16g#/	.	8F#\	in	8B\	in	8g#\	in	16g#/LL	in	.	.
.	.	.	16ee\JJ	.	16f#/JJ	.	.	.	.	.	.	.	16f#/JJ	.	16ee\K	16gg#\K
!	!	!	!	!	!LO:TX:t=P:problem:mixed beam	!	!	!	!	!	!	!	!	!	!	!
8G#\	.	8GG#\	16ee\LL	.	8e/L	.	8G#\	ter-	8B\	ter-	8g#\	ter-	8e/	ter-	8ee\	8gg#\
.	.	.	16ee\	.	.	.	.	.	.	.	.	.	.	.	.	.
8E\J	.	8EE\J	16ee\	.	8ee\J	.	8E\	-ra	8B\	-ra	8g#\	-ra	8ee\	-ra	8ee\J	8gg#\J
.	.	.	16ee\JJ	.	.	.	.	.	.	.	.	.	.	.	.	.
8B\L	.	8BB\L	16dd#X\LL	.	8.dd#\L	.	8B\	e-	8B\	e-	8f#\	e-	8dd#X\	e-	8b/L	8ff#\L
.	.	.	16dd#\	.	.	.	.	.	.	.	.	.	.	.	.	.
16E\L	.	16EE\L	16ee\	.	.	.	8E\	-rit	8B\	-rit	8g#\	-rit	8ee\	-rit	8ee/J	8gg#\J
16F#\J	.	16FF#\J	16ee\JJ	.	16ee\Jk	.	.	.	.	.	.	.	.	.	.	.
!	!	!	!LO:LB:g=original	!	!	!	!	!	!	!	!	!	!	!	!	!
!	!	!	!LO:TX:t=P:problem:mixed beam	!	!	!	!	!	!	!	!	!	!	!	!	!
8G#\	6	8GG#\	16e/LL	.	8bb\L	.	8r	.	8r	.	8r	.	8r	.	8r	8r
.	.	.	16ee\	.	.	.	.	.	.	.	.	.	.	.	.	.
8E\J	.	8EE\J	16ee\	.	8ee\J	.	(8E\	se-	(8B\	se-	[8e\	se-	8b\	se-	8ee\	8gg#\
.	.	.	16ee\JJ	.	.	.	.	.	.	.	.	.	.	.	.	.
!	!	!	!	!	!LO:LB:g=original	!	!	!	!	!	!LO:LB:g=original	!	!	!	!	!
=7	=7	=7	=7	=7	=7	=7	=7	=7	=7	=7	=7	=7	=7	=7	=7	=7
8A\L	.	8AA\L	16ee\LL	.	16ccc#\LL	.	8A\)	.	8A\)	.	8e\]	.	8cc#\L	-men	8ee\L	8ee\L
.	.	.	16ee\	.	16ccc#\	.	.	.	.	.	.	.	.	.	.	.
8G#\	7	8GG#\	16ee\	.	16bb\	.	8G#\	-men	8B\	-men	8e\	-men	8b\J	.	8ee\	16ee\L
.	.	.	16ee\JJ	.	16bb\JJ	.	.	.	.	.	.	.	.	.	.	16ee\JJ
!	!	!	!	!	!	!	!LO:LB:g=original	!	!	!	!	!	!	!	!	!
8F#\	.	8FF#\	16ee\LL	.	16aa\LL	.	(8F#\L	e-	(8c#\L	e-	8e\L	e-	4a\	e-	8ee\	8aa\L
.	.	.	16ee\	.	16aa\	.	.	.	.	.	.	.	.	.	.	.
8B\J	#7	8BB\J	16dd#X\	.	16aa\	.	8B\J)	.	8d#X\J)	.	8d#X\J	.	.	.	8b\J	8aa\J
.	.	.	16dd#\JJ	.	16aa\JJ	.	.	.	.	.	.	.	.	.	.	.
!	!	!	!	!	!	!	!	!	!LO:LB:g=original	!	!	!	!	!	!	!
8E\L	.	8EE\L	16ee\LL	.	16gg#\LL	.	4E\	-jus	4B\	-jus	4e\	-jus	4g#\	-jus	8ee\L	8gg#\L
.	.	.	16ee\	.	16gg#\	.	.	.	.	.	.	.	.	.	.	.
8F#\	.	8FF#\J	16ee\	.	16aa\	.	.	.	.	.	.	.	.	.	8ee\	8gg#\
.	.	.	16ee\JJ	.	16aa\JJ	.	.	.	.	.	.	.	.	.	.	.
!	!	!LO:LB:g=original	!	!	!	!	!	!	!	!	!	!	!	!	!	!
8G#\	6	8GG#\L	16ee\LL	.	16bb\LL	.	8r	.	8r	.	8r	.	8r	.	8ee\	8gg#\
.	.	.	16ee\	.	16bb\	.	.	.	.	.	.	.	.	.	.	.
8E\J	.	8EE\J	16ee\	.	16gg#\	.	16E\	ge-	16B\	ge-	16g#\	ge-	16cc#\	ge-	8ee\J	8gg#\J
.	.	.	16ee\JJ	.	16gg#\JJ	.	16E\	-ne-	16B\	-ne-	16g#\	-ne-	16b\	-ne-	.	.
=8	=8	=8	=8	=8	=8	=8	=8	=8	=8	=8	=8	=8	=8	=8	=8	=8
8A\L	.	8AA\L	16cc#\LL	.	16ee\LL	.	8A\	-ra-	8.A\	-ra-	8.a\	-ra-	8.cc#\	-ra-	8ee\L	8aa\L
.	.	.	16cc#\	.	16aa\	.	.	.	.	.	.	.	.	.	.	.
8A\	.	8AA\	16cc#\	.	16aa\	.	8A\	-ti-	.	.	.	.	.	.	8ee\J	8aa\J
.	.	.	16cc#\JJ	.	16aa\JJ	.	.	.	16d\	-ti-	16a\	-ti-	16a\	-ti-	.	.
!	!	!	!	!	!LO:TX:t=P:problem:mixed beam	!	!	!	!	!	!	!	!	!	!	!
8B\	#7	8BB\	16dd#X\LL	.	16a/LL	.	8B\	-o	8B\	-o	8a\	-o	8dd#X\	-o	8r	8r
.	.	.	16dd#\	.	16aa\	.	.	.	.	.	.	.	.	.	.	.
8B\J	.	8BB\J	16dd#\	.	16aa\	.	8B\	rec-	8B\	rec-	8a\	rec-	8dd#\	re-	8b/	8aa\L
.	.	.	16dd#\JJ	.	16aa\JJ	.	.	.	.	.	.	.	.	.	.	.
!LO:TX:t=P:problem:mixed beam	!	!LO:TX:t=P:problem:mixed beam	!LO:LB:g=original	!	!LO:TX:t=P:problem:mixed beam	!	!LO:TX:t=P:problem:mixed beam	!	!	!	!	!	!LO:LB:g=original	!	!	!
8c#\L	.	8C#\L	16ee\LL	.	16a/LL	.	8c#\L	-to-	4A/	-to-	4a\	-to-	8ee\L	-cto-	8ee\L	8aa\
.	.	.	16ee\	.	16aa\	.	.	.	.	.	.	.	.	.	.	.
8C#/	.	8CC#/	16ee\	.	16aa\	.	8C#/J	.	.	.	.	.	8a\J	.	8ee\J	8aa\J
.	.	.	16ee\JJ	.	16aa\JJ	.	.	.	.	.	.	.	.	.	.	.
!	!	!	!	!	!LO:TX:t=P:problem:mixed beam	!	!	!	!	!	!	!	!	!	!	!
8D#X/	65	8DD#X/	16ff#\LL	.	16b/LL	.	8D#X/	-rum	8A\	-rum	8a\	-rum	8ff#\	-rum	8r	8r
.	.	.	16ff#\	.	16aa\	.	.	.	.	.	.	.	.	.	.	.
8D#/J	.	8DD#/J	16ff#\	.	16aa\	.	8D#/	be-	8B\	be-	8a\	be-	8ff#\	be-	8ff#\	8aa\
.	.	.	16ff#\JJ	.	16aa\JJ	.	.	.	.	.	.	.	.	.	.	.
!	!	!	!	!	!	!	!	!	!	!	!	!	!	!	!LO:LB:g=original	!
=9	=9	=9	=9	=9	=9	=9	=9	=9	=9	=9	=9	=9	=9	=9	=9	=9
8E\L	.	8EE\L	8b\L	.	16gg#\LL	.	8E\	-ne-	8B\	-ne-	8g#\	-ne-	8ee\	-ne-	8ee\L	8gg#\L
.	.	.	.	.	16bb\	.	.	.	.	.	.	.	.	.	.	.
16G#\L	.	16GG#\L	16b\L	.	16aa\	.	16G#\LL	-di-	16B\LL	-di-	8g#\	-di-	8ee\	-di-	8ee\	8gg#\
16A\JJ	.	16AA\JJ	16cc#\JJ	.	16gg#\JJ	.	16A\JJ	.	16c#\JJ	.	.	.	.	.	.	.
!LO:TX:t=P:problem:mixed beam	!	!LO:TX:t=P:problem:mixed beam	!	!	!	!	!LO:TX:t=P:problem:mixed beam	!	!	!	!LO:LB:g=original	!	!	!	!	!
8B\L	.	8BB\L	8b\L	.	4ff#T\	.	8B\L	-ce-	4B\	-ce-	4f#\	-ce-	8ee\L	-ce-	8ee\	8ff#\
8BB/J	.	8BBB/J	8dd#X\J	.	.	.	8BB/J	.	.	.	.	.	8dd#X\J	.	8b\J	8ff#\J
!LO:PB:g=original	!	!	!	!	!	!	!	!	!	!	!	!	!	!	!	!
!LO:TX:a:t=|	!	!	!	!	!LO:TX:a:t=|	!	!	!	!	!	!	!	!	!	!	!LO:LB:g=original
8E\L	.	8EE\L	8ee\L	.	8ee\L	.	4E\	-tur.	4B\	-tur	4g#\	-tur	4ee\	-tur.	4e/	4gg#\
!LO:TX:a:t=|	!	!	!	!	!LO:TX:a:t=|	!	!	!	!	!	!	!	!	!	!	!
8c#\	.	8C#\	8cc#\	.	8cc#\J	.	.	.	.	.	.	.	.	.	.	.
!	!	!	!	!	!LO:LB:g=original	!	!	!	!	!	!	!	!	!	!	!
!LO:TX:a:t=|	!	!	!	!	!LO:TX:a:t=|	!	!	!	!	!	!	!	!	!	!	!
8A\	.	8AA\	8a\	.	8a\L	.	4r	.	4r	.	4r	.	4r	.	4r	4r
!LO:TX:a:t=|	!	!	!	!	!LO:TX:a:t=|	!	!	!	!	!	!	!	!	!	!	!
8B\J	.	8BB\J	8b\J	.	8b\J	.	.	.	.	.	.	.	.	.	.	.
=10	=10	=10	=10	=10	=10	=10	=10	=10	=10	=10	=10	=10	=10	=10	=10	=10
!LO:TX:a:t=Solo	!	!LO:TX:a:t=Solo	!	!	!	!	!LO:TX:a:t=3	!	!	!	!LO:TX:a:t=Solo	!	!	!	!	!
8E\	.	8EE\	4e/	.	4e/	.	0r	.	8e\	glo-	8g#\	glo-	0r	.	00r	00r
8r	.	8r	.	.	.	.	.	.	16d#X\	-ri-	16f#\	-ri-	.	.	.	.
.	.	.	.	.	.	.	.	.	16e\	-a	16g#\	-a	.	.	.	.
8A\	6	8AA\	4r	.	4r	.	.	.	8f#\	et	8a\	et	.	.	.	.
!	!	!	!	!	!	!	!	!	!LO:LB:g=original	!	!	!	!	!	!	!
8r	.	8r	.	.	.	.	.	.	8e\	di-	8g#\	di-	.	.	.	.
8B\	#	8BB\	2r	.	2r	.	.	.	8.d#\	-vi-	8.f#\	-vi-	.	.	.	.
8r	.	8r	.	.	.	.	.	.	.	.	.	.	.	.	.	.
.	.	.	.	.	.	.	.	.	16d#\	-ti-	16f#\	-ti-	.	.	.	.
8BB/	.	8BBB/	.	.	.	.	.	.	8d#\	-ae	8f#\	-ae	.	.	.	.
8r	.	8r	.	.	.	.	.	.	8d#\	in	8f#\	in	.	.	.	.
!	!	!LO:LB:g=original	!	!	!	!	!	!	!	!	!	!	!	!	!	!
=11	=11	=11	=11	=11	=11	=11	=11	=11	=11	=11	=11	=11	=11	=11	=11	=11
!	!	!	!	!	!LO:TX:a:t=2	!	!	!	!	!	!	!	!	!	!	!
8E\	.	8EE\	0r	.	0r	.	.	.	8e\	Do-	8g#\	Do-	.	.	.	.
8r	.	8r	.	.	.	.	.	.	16d#X\LL	-mo	16f#\LL	-mo	.	.	.	.
.	.	.	.	.	.	.	.	.	16e\JJ	.	16g#\JJ	.	.	.	.	.
*	*	*	*	*	*	*	*	*	*	*ij	*	*	*	*	*	*
8A\	6	8AA\	.	.	.	.	.	.	8f#\	Do-	8a\	Do-	.	.	.	.
8r	.	8r	.	.	.	.	.	.	8e\	-mo	8g#\	-mo	.	.	.	.
!	!	!	!	!	!	!	!	!	!	!	!LO:LB:g=original	!	!	!	!	!
*	*	*	*	*	*	*	*	*	*	*Xij	*	*	*	*	*	*
8B\	#	8BB\	.	.	.	.	.	.	8d#X\	e-	8f#\	e-	.	.	.	.
8r	.	8r	.	.	.	.	.	.	8e\	-jus	8B/	-jus	.	.	.	.
8BB/	.	8BBB/	.	.	.	.	.	.	8r	.	8r	.	.	.	.	.
8r	.	8r	.	.	.	.	.	.	16d#\	et	16b\	et	.	.	.	.
.	.	.	.	.	.	.	.	.	16d#\	jus-	16b\	jus-	.	.	.	.
=12	=12	=12	=12	=12	=12	=12	=12	=12	=12	=12	=12	=12	=12	=12	=12	=12
8C#/	76	8CC#/	.	.	.	.	1r	.	8e\	-ti-	8b\	-ti-	1r	.	.	.
8r	.	8r	.	.	.	.	.	.	16e\	-ti-	16a\	-ti-	.	.	.	.
.	.	.	.	.	.	.	.	.	16e\	-a	16a\	-a	.	.	.	.
8D#X/	56	8DD#X/	.	.	.	.	.	.	8f#\	e-	8a\	e-	.	.	.	.
8r	.	8r	.	.	.	.	.	.	8f#\	-jus	8a\	-jus	.	.	.	.
8E\L	4 9	8EE\L	.	.	.	.	.	.	8f#\	ma-	8a\	ma-	.	.	.	.
!	!	!	!	!	!	!	!	!	!LO:LB:g=original	!	!	!	!	!	!	!
8E\	.	8EE\	.	.	.	.	.	.	8e\	-net	8g#\	-net	.	.	.	.
8E\	3 8	8EE\	.	.	.	.	.	.	8r	.	8r	.	.	.	.	.
8D#X\J	.	8DD#X\J	.	.	.	.	.	.	8f#\	in	8a\	in	.	.	.	.
!	!	!	!	!	!	!	!LO:LB:g=original	!	!	!	!	!	!	!	!	!
=13	=13	=13	=13	=13	=13	=13	=13	=13	=13	=13	=13	=13	=13	=13	=13	=13
!LO:TX:t=P:problem:mixed beam	!	!LO:TX:t=P:problem:mixed beam	!	!	!	!	!	!	!	!	!	!	!	!	!	!
8E/L	.	8EE/L	2r	.	2r	.	2r	.	8e\	sae-	8g#\	sae-	2r	.	.	.
8A/	6	8AA/	.	.	.	.	.	.	16e\	-cu-	16f#\	-cu-	.	.	.	.
.	.	.	.	.	.	.	.	.	16e\	-lum	16f#\	-lum	.	.	.	.
!	!	!	!	!	!	!	!	!	!	!	!LO:PB:g=original	!	!	!	!	!
8B/	4	8BB/	.	.	.	.	.	.	8.e\	sae-	8.f#\	sae-	.	.	.	.
8BB\J	#	8BBB\J	.	.	.	.	.	.	.	.	.	.	.	.	.	.
.	.	.	.	.	.	.	.	.	16d#X\	-cu-	16e\	-cu-	.	.	.	.
!LO:LB:g=original	!	!	!	!	!	!	!	!	!	!	!	!	!	!	!	!
!LO:TX:a:t=|	!	!	!	!	!LO:TX:b:t=|	!	!	!	!	!	!	!	!	!	!	!
8E\L	.	8EE\L	8e/L	.	8e/L	.	4r	.	4e\	-li	4e\	-li	4r	.	.	.
!LO:TX:a:t=|	!	!	!	!	!LO:TX:b:t=|	!	!	!	!	!	!	!	!	!	!	!
8G#\	.	8GG#\	8g#/	.	8g#/	.	.	.	.	.	.	.	.	.	.	.
!LO:TX:a:t=|	!	!	!	!	!LO:TX:b:t=|	!	!	!	!	!	!	!	!	!	!	!
8A\	.	8AA\	8a/	.	8a/	.	8r	.	8r	.	8r	.	8r	.	.	.
!LO:TX:a:t=|	!	!	!	!	!LO:TX:b:t=|	!	!	!	!	!	!	!	!	!	!	!
8B\J	.	8BB\J	8b/J	.	8b/J	.	8B\	e-	8B\	e-	8f#\	e-	8b\	e-	.	.
!	!	!	!LO:LB:g=original	!	!	!	!	!	!	!	!	!	!	!	!	!
=14	=14	=14	=14	=14	=14	=14	=14	=14	=14	=14	=14	=14	=14	=14	=14	=14
!LO:TX:a:t=Tutti	!	!LO:TX:a:t=T&colon;	!	!	!	!	!	!	!	!	!	!	!	!	!	!
8E\L	.	8EE\L	8g#/L	.	16b/LL	.	8E\	-xor-	8B\	-xor-	8g#\	-xor-	16b\LL	-xor-	8ee\L	8gg#\L
.	.	.	.	.	16a/	.	.	.	.	.	.	.	16a\JJ	.	.	.
8F#\	.	8FF#\	8a/J	.	16g#/	.	8F#\	-tum	8B\	-tum	8g#\	-tum	16g#/LL	-tum	8ee\	8aa\
.	.	.	.	.	16f#/JJ	.	.	.	.	.	.	.	16f#/JJ	.	.	.
!	!	!	!	!	!LO:TX:t=P:problem:mixed beam	!	!	!	!	!	!	!	!	!	!	!
8G#\	.	8GG#\	8b/L	.	8e/L	.	8G#\	e(st)	8B\	e(st)	8g#\	est	8e/	e(t)	8ee\	8bb\
8E\J	.	8EE\J	8g#/J	.	8ee\J	.	8E\	in	8B\	in	8g#\	in	8ee\	in	8ee\J	8gg#\J
!	!	!LO:LB:g=original	!	!	!	!	!	!	!	!	!	!	!LO:LB:g=original	!	!	!
8A\L	6	8AA\L	8cc#\L	.	16ff#\LL	.	8A\	te-	8c#\	te-	8e\	te-	16ff#\	te-	8ee\L	8ccc#\L
.	.	.	.	.	16dd#\J	.	.	.	.	.	.	.	16dd#X\	-ne-	.	.
8G#\J	6	8GG#\J	8b\J	.	8ee\J	.	16G#\	-ne-	16B\	-ne-	16g#\	-ne-	4ee\	-bris	8ee\	8bb\J
.	.	.	.	.	.	.	16G#\	-bris	16B\	-bris	16g#\	-bris	.	.	.	.
8E\L	.	8EE\L	8g#/L	.	8e/L	.	8r	.	4B\	lu-	8g#\L	lu-	.	.	8ee\	8gg#\L
16G#\L	.	16GG#\L	16a/L	.	8b/J	.	(16G#\LL	lu-	.	.	16b\L	.	8b\	lu-	8ee\J	16bb\L
16F#\JJ	.	16FF#\JJ	16a/JJ	.	.	.	16F#\JJ)	.	.	.	16a\JJ	.	.	.	.	16aa\JJ
!	!	!	!	!	!	!	!	!	!LO:PB:g=original	!	!	!	!	!	!	!
=15	=15	=15	=15	=15	=15	=15	=15	=15	=15	=15	=15	=15	=15	=15	=15	=15
8E\L	5	8EE\L	8g#/L	.	16b\LL	.	8E\	-men	8G#/	.	8g#\	.	(16b\LL	.	4ee\	4gg#\
.	.	.	.	.	16cc#\	.	.	.	.	.	.	.	16cc#\JJ)	.	.	.
8E\	6	8EE\	8g#/	.	16cc#\	.	8E\	rec-	8G#/	-men	8f#\	-men	8cc#\	-men	.	.
.	.	.	.	.	16cc#\JJ	.	.	.	.	.	.	.	.	.	.	.
8D#X\	7	8DD#X\	8f#/	.	16cc#\LL	.	8D#X/	-tis	8F#/	rec-	8f#\	rec-	16cc#\LL	rec-	4r	4r
.	.	.	.	.	16a#X\	.	.	.	.	.	.	.	16a#X\JJ	.	.	.
8D#\J	6	8DD#\J	8f#/J	.	16b\	.	16D#/	mi-	16F#/	-tis	16f#\	-tis	16b\	-tus	.	.
.	.	.	.	.	16ff#\JJ	.	16D#/	-se-	16F#/	mi-	16f#\	mi-	16b\	mi-	.	.
!	!	!	!	!	!LO:LB:g=original	!	!	!	!	!	!LO:LB:g=original	!	!	!	!	!
8C#/L	.	8CC#/L	16cc#\LL	.	16ee\LL	.	8C#/	-ri-	16G#/	-se-	16e\	-se-	16ee\	-se-	2r	2r
.	.	.	16cc#\	.	16ee\	.	.	.	16G#/	-ri-	16e\	-ri-	16ee\	-ri-	.	.
8C#/	3	8CC#/	16cc#\	.	16ee\	.	16c#\	-cors	8G#/	-cors	16e\	-cors	16ee\	-cors	.	.
.	.	.	16cc#\JJ	.	16ee\JJ	.	16c#\	.	.	.	16e\	et	16ee\	et	.	.
!	!	!	!	!	!LO:TX:t=P:problem:mixed beam	!	!LO:LB:g=original	!	!	!	!	!	!	!	!	!
8AA#X/	6 5	8AAA#X/	16cc#\LL	.	16f#/LL	.	8A\L	et	8.c#\	et	8.e\	mi-	8.ee\	mi-	.	.
.	.	.	16cc#\	.	16ee\	.	.	.	.	.	.	.	.	.	.	.
8FF#/J	.	8FFF#/J	16cc#\	.	16ee\	.	8F#\J	mi-	.	.	.	.	.	.	.	.
.	.	.	16cc#\JJ	.	16ee\JJ	.	.	.	16A#X/	mi-	16e\	-se-	16ee\	-se-	.	.
!	!	!	!	!	!	!	!	!	!	!	!	!	!LO:PB:g=original	!	!	!
=16	=16	=16	=16	=16	=16	=16	=16	=16	=16	=16	=16	=16	=16	=16	=16	=16
8BB\L	#	8BBB/L	8b\L	.	8.dd#X\L	.	8BB/L	-se-	4B\	-se-	4f#\	-ra-	8.dd#X\L	-ra-	8ff#\L	8bb\L
8C#\	6\	8CC#/	8a#X\	.	.	.	8C#/J	-ra-	.	.	.	.	.	.	8ee\	8bb\
.	.	.	.	.	16cc#\K	.	.	.	.	.	.	.	16cc#\Jk	.	.	.
8D#\	6	8DD#/	8b\	.	8b\	.	8D#X/	-tor	8B\	-ra-	8f#\	-tor	8b\	-tor	8ff#\	8bb\
8E\J	6	8EE/J	8b\J	.	8cc#\J	.	8E\	et	8B\	-tor	(8g#\	et	8cc#\	et	8gg#\J	8bb\J
!LO:TX:t=P:problem:mixed beam	!	!LO:TX:t=P:problem:mixed beam	!	!	!	!	!LO:TX:t=P:problem:mixed beam	!	!	!	!	!	!	!	!	!
8F#\L	6: 4:	8FF#\L	4b/	.	4dd#\	.	8F#\L	jus-	4B\	et	2f#\)	jus-	(4dd#X\	jus-	4ff#\	4bb\
8E\	.	8EE\	.	.	.	.	8E\	.	.	.	.	.	.	.	.	.
8F#\	.	8FF#\	4a#X/	.	4cc#T\	.	8F#\	.	4A#X\	jus-	.	.	4cc#\)	.	4ff#\	4aa#X\
8FF#/J	#	8FFF#/J	.	.	.	.	8FF#/J	.	.	.	.	.	.	.	.	.
!	!	!	!LO:LB:g=original	!	!	!	!	!	!	!	!	!	!	!	!	!
=17	=17	=17	=17	=17	=17	=17	=17	=17	=17	=17	=17	=17	=17	=17	=17	=17
!LO:TX:b:t=|	!	!LO:TX:t=P:problem:mixed beam	!	!	!	!	!	!	!	!	!	!	!	!	!	!
8BB/L	.	8BBB/L	8b/L	.	8b/L	.	4BB/	-tus	4B\	-tus	4f#\	-tus	4b\	-tus	4b/	4bb\
!LO:TX:a:t=|	!	!	!	!	!	!	!	!	!	!	!	!	!	!	!	!
8G#\	.	8GG#\	8g#/	.	8g#/	.	.	.	.	.	.	.	.	.	.	.
!LO:TX:a:t=|	!	!	!	!	!	!	!	!	!	!	!	!	!	!	!	!
8E\	.	8EE\	8e/	.	8e/	.	8r	.	4r	.	4r	.	4r	.	4r	4r
!LO:TX:a:t=|	!	!	!	!	!	!	!	!	!	!	!	!	!	!	!	!
8F#\J	.	8FF#\J	8f#/J	.	8f#/J	.	8F#\	ju-	.	.	.	.	.	.	.	.
8BB/L	.	8BBB/L	4B/	.	4B/	.	4B\	-cun-	2r	.	2r	.	2r	.	2r	2r
8BB/	.	8BBB/J	.	.	.	.	.	.	.	.	.	.	.	.	.	.
!	!	!LO:LB:g=original	!	!	!	!	!	!	!	!	!	!	!	!	!	!
8C#/	6\	8CC#/L	4r	.	4r	.	4A#X\	-dus	.	.	.	.	.	.	.	.
8C#/J	.	8CC#/J	.	.	.	.	.	.	.	.	.	.	.	.	.	.
!LO:LB:g=original	!	!	!	!	!	!	!	!	!LO:LB:g=original	!	!	!	!	!	!	!
=18	=18	=18	=18	=18	=18	=18	=18	=18	=18	=18	=18	=18	=18	=18	=18	=18
8D#/L	6	8DD#/L	00r	.	8ff#\L	.	8B\	ho-	00r	.	00r	.	00r	.	00r	00r
16D#/L	.	16DD#/L	.	.	16ff#\L	.	8BB/	-mo	.	.	.	.	.	.	.	.
16C#/JJ	.	16CC#/JJ	.	.	16ee\JJ	.	.	.	.	.	.	.	.	.	.	.
8D#/L	.	8DD#/L	.	.	8ff#\L	.	8r	.	.	.	.	.	.	.	.	.
8AA#X/J	6	8AAA#X/J	.	.	8cc#\J	.	8F#\	ju-	.	.	.	.	.	.	.	.
4BB/	.	4BBB/	.	.	4dd#\	.	16F#\LL	-cun-	.	.	.	.	.	.	.	.
.	.	.	.	.	.	.	16E\JJ	.	.	.	.	.	.	.	.	.
.	.	.	.	.	.	.	16D#X/	-dus	.	.	.	.	.	.	.	.
*	*	*	*	*	*	*	*	*ij	*	*	*	*	*	*	*	*
.	.	.	.	.	.	.	16C#/	ju-	.	.	.	.	.	.	.	.
8r	.	8r	.	.	8r	.	8BB/	-cun-	.	.	.	.	.	.	.	.
8D#/	.	8DD#/	.	.	8ff#\	.	8B\	-dus	.	.	.	.	.	.	.	.
*	*	*	*	*	*	*	*	*Xij	*	*	*	*	*	*	*	*
!	!	!	!	!	!LO:LB:g=original	!	!LO:LB:g=original	!	!	!	!	!	!	!	!	!
=19	=19	=19	=19	=19	=19	=19	=19	=19	=19	=19	=19	=19	=19	=19	=19	=19
8E\L	6	8EE\L	.	.	8gg#\L	.	16c#\LL	ho-	.	.	.	.	.	.	.	.
.	.	.	.	.	.	.	16A#X\JJ	.	.	.	.	.	.	.	.	.
16D#\L	.	16DD#\L	.	.	16ff#\L	.	8B\	-mo	.	.	.	.	.	.	.	.
16C#\JJ	6	16CC#\JJ	.	.	16ee\JJ	.	.	.	.	.	.	.	.	.	.	.
8BB/L	.	8BBB/L	.	.	8dd#\L	.	8r	.	.	.	.	.	.	.	.	.
8D#/	.	8DD#/	.	.	8ff#\J	.	8F#\	qui	.	.	.	.	.	.	.	.
8E/	6	8EE/	.	.	8b/L	.	8G#\	mi-	.	.	.	.	.	.	.	.
8D#/J	.	8DD#/J	.	.	8b/	.	8F#\	-se-	.	.	.	.	.	.	.	.
8C#\L	7	8CC#\L	.	.	8b/	.	8E\	-ra-	.	.	.	.	.	.	.	.
8F#\J	#	8FF#\J	.	.	8a#X/J	.	16F#\	-tur	.	.	.	.	.	.	.	.
.	.	.	.	.	.	.	16E\	et	.	.	.	.	.	.	.	.
=20	=20	=20	=20	=20	=20	=20	=20	=20	=20	=20	=20	=20	=20	=20	=20	=20
8BB/L	.	8BBB/L	.	.	8b\L	.	16D#X/	com-	.	.	.	.	.	.	.	.
.	.	.	.	.	.	.	16C#/	-mo-	.	.	.	.	.	.	.	.
16BB/L	.	16BBB/L	.	.	16dd#\L	.	8BB/	-dat	.	.	.	.	.	.	.	.
16C#/JJ	.	16CC#/JJ	.	.	16ee\JJ	.	.	.	.	.	.	.	.	.	.	.
!	!	!	!	!	!LO:TX:t=P:problem:mixed beam	!	!	!	!	!	!	!	!	!	!	!
8D#\L	.	8DD#\L	.	.	8ff#\L	.	8r	.	.	.	.	.	.	.	.	.
8F#\J	#	8FF#\J	.	.	8a#X/J	.	8F#\	dis-	.	.	.	.	.	.	.	.
!	!	!LO:LB:g=original	!	!	!	!	!	!	!	!	!	!	!	!	!	!
8D#\L	6	8DD#\L	.	.	16b/LL	.	8B\	-po-	.	.	.	.	.	.	.	.
.	.	.	.	.	16f#/	.	.	.	.	.	.	.	.	.	.	.
8E\	6	8EE\	.	.	16f#/	.	16c#\	-net	.	.	.	.	.	.	.	.
.	.	.	.	.	16f#/JJ	.	16A#X\	ser-	.	.	.	.	.	.	.	.
!	!	!	!	!	!LO:TX:t=P:problem:mixed beam	!	!	!	!	!	!	!	!	!	!	!
8D#\	6	8DD#\	.	.	16f#/LL	.	8B\	-mo-	.	.	.	.	.	.	.	.
.	.	.	.	.	16ff#\	.	.	.	.	.	.	.	.	.	.	.
8E\J	6	8EE\J	.	.	16ff#\	.	16c#\LL	-nes	.	.	.	.	.	.	.	.
.	.	.	.	.	16ff#\JJ	.	16A#X\JJ	.	.	.	.	.	.	.	.	.
!	!	!	!	!	!	!	!LO:LB:g=original	!	!	!	!	!	!	!	!	!
=21	=21	=21	=21	=21	=21	=21	=21	=21	=21	=21	=21	=21	=21	=21	=21	=21
8D#\L	.	8DD#\L	.	.	8ff#\L	.	8B\	su-	.	.	.	.	.	.	.	.
8D#\	.	8DD#\	.	.	8ff#\	.	8BB/	-os	.	.	.	.	.	.	.	.
8BB\	.	8BBB\	.	.	8dd#\	.	8B\	in	.	.	.	.	.	.	.	.
8E\J	6	8EE\J	.	.	8gg#\J	.	8c#\	ju-	.	.	.	.	.	.	.	.
8F#\L	.	8FF#\L	.	.	8cc#\L	.	16A#X\	-di-	.	.	.	.	.	.	.	.
.	.	.	.	.	.	.	16G#\	-ci-	.	.	.	.	.	.	.	.
8F#\	.	8FF#\	.	.	8ff#\	.	8F#\	-o	.	.	.	.	.	.	.	.
8A#X\	6	8AA#X\	.	.	8ff#\	.	8r	.	.	.	.	.	.	.	.	.
8F#\J	.	8FF#\J	.	.	8ee\J	.	16F#\	qui-	.	.	.	.	.	.	.	.
.	.	.	.	.	.	.	16F#\	-a	.	.	.	.	.	.	.	.
=22	=22	=22	=22	=22	=22	=22	=22	=22	=22	=22	=22	=22	=22	=22	=22	=22
8B\L	#	8BB\L	1r	.	8dd#\	.	4B\	in	1r	.	1r	.	1r	.	0r	0r
8B\	3:	8BB\	.	.	(4dd#\	.	.	.	.	.	.	.	.	.	.	.
8A#X\	.	8AA#X\	.	.	.	.	4B\	ae-	.	.	.	.	.	.	.	.
8A#\J	.	8AA#\J	.	.	4dd#\)	.	.	.	.	.	.	.	.	.	.	.
!LO:LB:g=original	!	!	!	!	!	!	!	!	!	!	!	!	!	!	!	!
8G#\L	.	8GG#\L	.	.	.	.	4B\	-ter-	.	.	.	.	.	.	.	.
!	!	!	!	!	!LO:LB:g=original	!	!	!	!	!	!	!	!	!	!	!
8G#\	.	8GG#\	.	.	4dd#\	.	.	.	.	.	.	.	.	.	.	.
8D#\	6	8DD#\	.	.	.	.	8B\	-num	.	.	.	.	.	.	.	.
8D#\J	.	8DD#\J	.	.	8dd#\	.	8B\	n(on)	.	.	.	.	.	.	.	.
=23	=23	=23	=23	=23	=23	=23	=23	=23	=23	=23	=23	=23	=23	=23	=23	=23
!LO:TX:t=P:problem:mixed beam	!	!LO:TX:t=P:problem:mixed beam	!	!	!	!	!	!	!	!	!	!	!	!	!	!
8BB/L	.	8BBB/L	2r	.	8dd#\L	.	8B\	com-	2r	.	2r	.	2r	.	.	.
8E\	6	8EE/	.	.	8cc#\	.	8c#\	-mo-	.	.	.	.	.	.	.	.
8F#\	#	8FF#/	.	.	8.cc#\	.	8.A#X\	-ve-	.	.	.	.	.	.	.	.
8FF#\J	.	8FFF#\J	.	.	.	.	.	.	.	.	.	.	.	.	.	.
.	.	.	.	.	16cc#\Jk	.	16A#\	-bi-	.	.	.	.	.	.	.	.
!LO:TX:t=P:problem:mixed beam	!	!	!	!	!	!	!	!	!	!	!	!	!	!	!	!
!LO:TX:a:t=|	!	!LO:TX:t=P:problem:mixed beam	!	!	!	!	!LO:LB:g=original	!	!	!	!	!	!	!	!	!
8BB\L	.	8BBB/L	8r	.	8b/L	.	4B\	-tur	4r	.	4r	.	4r	.	.	.
!LO:TX:a:t=|	!	!	!	!	!	!	!	!	!	!	!	!	!	!	!	!
8G#\	.	8GG#\J	8g#/L	.	8g#/	.	.	.	.	.	.	.	.	.	.	.
!LO:TX:a:t=|	!	!LO:LB:g=original	!	!	!	!	!	!	!	!	!	!	!	!	!	!
8E\	.	8EE\L	8e/	.	8e/	.	8r	.	8r	.	8r	.	8r	.	.	.
!LO:TX:a:t=|	!	!	!	!	!	!	!	!	!	!	!	!	!	!	!	!
8F#\J	.	8FF#\J	8f#/J	.	8f#/J	.	16B\	in	16A#X/	in	16f#\	in	16ff#\	In	.	.
.	.	.	.	.	.	.	16B\	me-	16A#/	me-	16f#\	me-	16ff#\	me-	.	.
!	!	!	!	!	!	!	!	!	!	!	!LO:LB:g=original	!	!	!	!LO:LB:g=original	!
=24	=24	=24	=24	=24	=24	=24	=24	=24	=24	=24	=24	=24	=24	=24	=24	=24
!	!	!	!	!	!LO:TX:t=P:problem:mixed beam	!	!	!	!	!	!	!	!	!	!	!
4BB/	#	4BBB/	4B/	.	16B/LL	.	8.BB/	-mo-	8.B\	-mo-	8.f#\	-mo-	8.ff#\	-mo-	4b/	4b/
.	.	.	.	.	16dd#\	.	.	.	.	.	.	.	.	.	.	.
.	.	.	.	.	16dd#\	.	.	.	.	.	.	.	.	.	.	.
.	.	.	.	.	16dd#\JJ	.	16BB/	-ri-	16B\	-ri-	16f#\	-ri-	16ee\	-ri-	.	.
8r	.	8r	8r	.	16dd#\LL	.	8BB/	-ae	8e\	-a	8.f#\	-a	16dd#X\LL	-a	8r	8r
.	.	.	.	.	16dd#\	.	.	.	.	.	.	.	16cc#\JJ	.	.	.
8C#/	76	8CC#/	8a#X/	.	16ee\	.	8C#/	ae-	8e\	ae-	.	.	16b\LL	ae-	8ee\	8ee\
.	.	.	.	.	16ee\JJ	.	.	.	.	.	16f#\	ae-	16a#X\JJ	.	.	.
8D#/L	6	8DD#/L	16b/LL	.	16ff#\LL	.	8D#X/L	-ter-	(8d#X\L	-ter-	8f#\L	-ter-	8b\	-ter-	8b/L	8b/L
.	.	.	16b/	.	16ff#\	.	.	.	.	.	.	.	.	.	.	.
!	!	!	!	!	!	!	!	!	!	!	!	!	!LO:LB:g=original	!	!	!
8C#/	.	8CC#/	16b/	.	16ee\	.	8C#/J	.	8e\)	.	8e\J	.	8f#/	-na	8b/	8b/
.	.	.	16b/JJ	.	16ee\JJ	.	.	.	.	.	.	.	.	.	.	.
8D#/	6	8DD#/	16b/LL	.	16ff#\LL	.	8D#/L	-na	(8d#\	-na	8f#\L	-na	8r	.	8b/	8b/
.	.	.	16b/	.	16ff#\	.	.	.	.	.	.	.	.	.	.	.
8BB/J	.	8BBB/J	16b/	.	16dd#\	.	8BB/J	.	8f#\J)	.	8d#X\J	.	8b\	e-	8b/J	8b/J
.	.	.	16b/JJ	.	16dd#\JJ	.	.	.	.	.	.	.	.	.	.	.
!	!	!	!	!	!	!	!	!	!	!	!	!	!	!	!	!LO:LB:g=original
=25	=25	=25	=25	=25	=25	=25	=25	=25	=25	=25	=25	=25	=25	=25	=25	=25
8E\L	.	8EE\L	16b/LL	.	16gg#\LL	.	8E\	e-	8B\	e-	8g#\	e-	(16g#\LL	.	8gg#\L	8bb\L
.	.	.	16b/	.	16gg#\	.	.	.	.	.	.	.	16a#X\JJ)	.	.	.
8D#\	6	8DD#\	16b/	.	16ff#\	.	8D/	-rit	8B\	-rit	8f#\	-rit	8b\	-rit	8ff#\	8bb\
.	.	.	16b/JJ	.	16ff#\JJ	.	.	.	.	.	.	.	.	.	.	.
!	!	!	!LO:LB:g=original	!	!	!	!	!	!	!	!	!	!	!	!	!
8C#\	7	8CC#\	16b/LL	.	16ee\LL	.	(8C#\L	jus-	4c#\	jus-	4e\	jus-	(8b\L	jus-	8ee\	8bb\
.	.	.	16b/	.	16ee\	.	.	.	.	.	.	.	.	.	.	.
8F#\J	#7	8FF#\J	16a#X/	.	16ee\	.	8F#\J)	.	.	.	.	.	8a#X\J)	.	8ee\J	8aa#X\J
.	.	.	16a#/JJ	.	16ee\JJ	.	.	.	.	.	.	.	.	.	.	.
!LO:TX:t=P:problem:mixed beam	!	!LO:TX:t=P:problem:mixed beam	!	!	!LO:LB:g=original	!	!	!	!	!	!LO:N:vis=4	!	!	!	!	!
8BB/L	.	8BBB/L	16b/LL	.	16dd#\LL	.	4BB/	-tus	4d#X\	-tus	8d#X\	-tus	4b\	-tus	8ff#\L	8bb\L
.	.	.	16b/	.	16dd#\	.	.	.	.	.	.	.	.	.	.	.
16B\L	.	16BB\L	16b/	.	16dd#\	.	.	.	.	.	8r	.	.	.	8ff#\	8bb\
16An\JJ	4 2	16AAn\JJ	16b/JJ	.	16dd#\JJ	.	.	.	.	.	.	.	.	.	.	.
!	!	!	!	!	!	!	!	!	!LO:LB:g=original	!	!	!	!	!	!	!
8G#\L	6	8GG#\L	8b/L	.	16ee\LL	.	8r	.	8r	.	8a\	ab	8r	.	8ff#\	8bb\
.	.	.	.	.	16ee\	.	.	.	.	.	.	.	.	.	.	.
8F#\J	.	8FF#\J	8an/J	.	16dd#\	.	16F#\	ab	16d#\	ab	8a\	au-	16b\	ab	8ff#\J	8aa\J
.	.	.	.	.	16dd#\JJ	.	16F#\	au-	16d#\	au-	.	.	16b\	au-	.	.
!	!	!	!	!	!	!	!LO:LB:g=original	!	!	!	!	!	!	!	!	!
=26	=26	=26	=26	=26	=26	=26	=26	=26	=26	=26	=26	=26	=26	=26	=26	=26
!	!	!	!	!	!	!	!	!	!	!	!	!	!	!	!LO:TX:t=P:problem:mixed beam	!
8E\L	.	8EE\L	16g#\LL	.	16ee\LL	.	8.E\	-di-	8e\	-di-	8.g#\	-di-	8.ee\	-di-	8ee\L	8gg#\L
.	.	.	16ee\	.	16gg#\	.	.	.	.	.	.	.	.	.	.	.
8E\	.	8EE\	16ee\	.	16gg#\	.	.	.	8B\	-ti-	.	.	.	.	8ee\	8gg#\
.	.	.	16ee\JJ	.	16gg#\JJ	.	16E\	-ti-	.	.	16g#\	-ti-	16ee\	-ti-	.	.
!	!	!	!	!	!	!	!	!	!	!	!LO:LB:g=original	!	!	!	!	!
8F#\	6\	8FF#\	16dd#X\LL	.	16aa\LL	.	8F#\	-o-	8A/	-o-	8a\	-o-	8dd#X\	-o-	8b/	8aa\
.	.	.	16dd#\	.	16aa\	.	.	.	.	.	.	.	.	.	.	.
8F#\J	.	8FF#\J	16dd#\	.	16aa\	.	8F#\	-ne	8A/	-ne	8a\	-ne	8b\	-ne	8b/J	8aa\J
.	.	.	16dd#\JJ	.	16aa\JJ	.	.	.	.	.	.	.	.	.	.	.
8G#\L	.	8GG#\L	16ee\LL	.	16bb\LL	.	8G#\	ma-	8B\	ma-	8g#\	ma-	8ee\	ma-	8ee\L	8.bb\L
.	.	.	16ee\	.	16bb\	.	.	.	.	.	.	.	.	.	.	.
16G#\L	.	16GG#\L	16ee\	.	16bb\	.	16G#\LL	-la	8B\	-la	16g#\LL	-la	8e/	-la	8ee\	.
16F#\JJ	.	16FF#\JJ	16ee\JJ	.	16aa\JJ	.	16F#\JJ	.	.	.	16a\JJ	.	.	.	.	16aa\K
!	!	!LO:LB:g=original	!	!	!	!	!	!	!	!	!	!	!LO:LB:g=original	!	!	!
8G#\L	.	8GG#\L	16ee\LL	.	16bb\LL	.	8G#\	n(on)	8r	.	8b\	n(on)	8r	.	8ee\	8bb\
.	.	.	16ee\	.	16bb\	.	.	.	.	.	.	.	.	.	.	.
8E\J	.	8EE\J	16ee\	.	16gg#\	.	8E\	ti-	8B\	non	8g#\	ti-	8ee\	n(on)	8ee\J	8gg#\J
.	.	.	16ee\JJ	.	16gg#\JJ	.	.	.	.	.	.	.	.	.	.	.
!LO:LB:g=original	!	!	!	!	!	!	!	!	!	!	!	!	!	!	!	!
=27	=27	=27	=27	=27	=27	=27	=27	=27	=27	=27	=27	=27	=27	=27	=27	=27
!	!	!	!	!	!	!	!	!	!	!	!	!	!	!	!LO:TX:t=P:problem:mixed beam	!
8A\L	6	8AA\L	8cc#\L	.	16ff#\LL	.	8A\	-me-	8c#\	n(on)	8f#\	-[[mi-	8ff#\	n(on)	8ee\L	8ff#\L
.	.	.	.	.	16ff#\	.	.	.	.	.	.	.	.	.	.	.
16G#\L	.	16GG#\L	16b\L	.	16ee\	.	16G#\LL	.	8c#\	ti-	8f#\	-bi]]	8ee\	ti-	8ee\	8ff#\
16A\JJ	.	16AA\JJ	16cc#\JJ	.	16ee\JJ	.	16A\JJ	.	.	.	.	.	.	.	.	.
!LO:TX:t=P:problem:mixed beam	!	!LO:TX:t=P:problem:mixed beam	!LO:PB:g=original	!	!	!	!LO:TX:t=P:problem:mixed beam	!	!	!	!	!	!	!	!	!
8B\L	.	8BB\L	8f#/L	.	8.dd#t\L	.	8B\L	.	4B\	-me-	8.f#\L	me-	8.dd#X\L	-me-	8b/	8.ff#\
8BB/J	.	8BBB/J	8f#/J	.	.	.	8BB/J	.	.	.	.	.	.	.	8b/J	.
.	.	.	.	.	16ee\Jk	.	.	.	.	.	16g#\Jk	.	16ee\Jk	.	.	16ff#\Jk
!LO:TX:a:t=|	!	!	!	!	!LO:TX:a:t=|:	!	!	!	!	!	!	!	!	!	!	!
8E\L	.	8EE\L	8g#\L	.	8ee\L	.	4E\	-bit	4B\	-bit	4f#\	-bit	4ee\	-bit	4e/	4ee\
!LO:TX:a:t=|	!	!	!	!	!LO:TX:a:t=|	!	!	!	!	!	!	!	!	!	!	!
8c#\	.	8C#\	8cc#\	.	8cc#\	.	.	.	.	.	.	.	.	.	.	.
!LO:TX:a:t=|	!	!	!	!	!LO:TX:a:t=|	!	!	!	!	!	!	!	!	!	!	!
8A\	.	8AA\	8a\	.	8a\	.	4r	.	4r	.	8r	.	4r	.	4r	4r
!LO:TX:a:t=|	!	!	!	!	!LO:TX:a:t=|	!	!	!	!	!	!	!	!	!	!	!
8B\J	.	8BB\J	8b\J	.	8b\J	.	.	.	.	.	8b\	pa-	.	.	.	.
=28	=28	=28	=28	=28	=28	=28	=28	=28	=28	=28	=28	=28	=28	=28	=28	=28
!LO:TX:a:t=solo	!	!LO:TX:a:t=Solo	!	!	!	!	!	!	!	!	!	!	!	!	!LO:TX:a:t=6	!
4E\	.	4EE\	4e/	.	4e/	.	00r	.	00r	.	16b\LL	-ra-	00r	.	00r	00r
.	.	.	.	.	.	.	.	.	.	.	16a\	.	.	.	.	.
.	.	.	.	.	.	.	.	.	.	.	16g#\	.	.	.	.	.
.	.	.	.	.	.	.	.	.	.	.	16f#\JJ	.	.	.	.	.
8r	.	8r	8r	.	8.ee\L	.	.	.	.	.	8e\	-tum	.	.	.	.
8F#\	6\	8GG#\	8a/	.	.	.	.	.	.	.	8d#X\	cor	.	.	.	.
.	.	.	.	.	16dd#\Jk	.	.	.	.	.	.	.	.	.	.	.
!	!	!	!	!	!LO:LB:g=original	!	!	!	!	!	!LO:LB:g=original	!	!	!	!	!
8G#\L	6	8GG#\L	8b/L	.	8ee\L	.	.	.	.	.	8e\	e-	.	.	.	.
8F#\	.	8FF#\	8a/	.	8ee\	.	.	.	.	.	8B/	-jus	.	.	.	.
8G#\	.	8GG#\	8b/	.	8ee\	.	.	.	.	.	8r	.	.	.	.	.
8E\J	.	8EE\J	8g#/J	.	8ee\J	.	.	.	.	.	8b\	sper-	.	.	.	.
=29	=29	=29	=29	=29	=29	=29	=29	=29	=29	=29	=29	=29	=29	=29	=29	=29
8A\L	.	8AA\L	8cc#\L	.	8ee\L	.	.	.	.	.	8cc#\	-ca-	.	.	.	.
8G#\	6	8GG#\	8b\	.	8ee\	.	.	.	.	.	16b\	-re	.	.	.	.
.	.	.	.	.	.	.	.	.	.	.	16b\	in	.	.	.	.
8F#\	#	8FF#\	8.a\	.	8ee\	.	.	.	.	.	8.a\	Do-	.	.	.	.
8B\J	.	8BB\J	.	.	8dd#\J	.	.	.	.	.	.	.	.	.	.	.
.	.	.	16a\Jk	.	.	.	.	.	.	.	16a\	-mi-	.	.	.	.
8E\L	7	8EE\L	8g#/L	.	8ee\L	.	.	.	.	.	4g#\	-no	.	.	.	.
8F#\	.	8FF#\	8g#/	.	8ee\	.	.	.	.	.	.	.	.	.	.	.
8E\	.	8EE\	8g#/	.	8ee\	.	.	.	.	.	8r	.	.	.	.	.
8Dn\J	4 2	8DDn\J	8g#/J	.	8ee\J	.	.	.	.	.	16g#\	con-	.	.	.	.
.	.	.	.	.	.	.	.	.	.	.	16g#\	-fir-	.	.	.	.
!	!	!LO:LB:g=original	!	!	!	!	!	!	!	!	!	!	!	!	!	!
=30	=30	=30	=30	=30	=30	=30	=30	=30	=30	=30	=30	=30	=30	=30	=30	=30
4C#/	6	4CC#/	4a#X/	.	8ee\L	.	.	.	.	.	8e\	-ma-	.	.	.	.
.	.	.	.	.	16ff#\L	.	.	.	.	.	16f#\LL	-tum	.	.	.	.
.	.	.	.	.	16gg#\JJ	.	.	.	.	.	16g#\JJ	.	.	.	.	.
8r	.	8r	8r	.	8aa\L	.	.	.	.	.	8a\	e(st)	.	.	.	.
!LO:TX:t=P:problem:kreska taktowa	!	!	!	!	!	!	!	!	!	!	!	!	!	!	!	!
8AA/	.	8AAA/	8a#/	.	8ggn\J	.	.	.	.	.	8gn\	cor	.	.	.	.
!	!	!	!LO:LB:g=original	!	!	!	!	!	!	!	!LO:LB:g=original	!	!	!	!	!
8Dn\L	.	8DDn\L	4a#/	.	8.ff#\L	.	.	.	.	.	8f#\	e-	.	.	.	.
8C#\	.	8CC#\	.	.	.	.	.	.	.	.	8f#\	-jus	.	.	.	.
.	.	.	.	.	16ff#\K	.	.	.	.	.	.	.	.	.	.	.
8D\	.	8DD\	4b/	.	8ff#\	.	.	.	.	.	8r	.	.	.	.	.
8BB\J	.	8BBB\J	.	.	8ff#\J	.	.	.	.	.	8f#\	non	.	.	.	.
=31	=31	=31	=31	=31	=31	=31	=31	=31	=31	=31	=31	=31	=31	=31	=31	=31
8E\L	#	8EE\L	8b\L	.	16gg#X\LL	.	.	.	.	.	16g#X\LL	com-	.	.	.	.
.	.	.	.	.	16ff#\	.	.	.	.	.	16f#\	.	.	.	.	.
8E\	.	8EE\	8b\	.	16gg#\	.	.	.	.	.	16g#\	.	.	.	.	.
.	.	.	.	.	16aa\JJ	.	.	.	.	.	16a\JJ	.	.	.	.	.
8E\	.	8EE\	8b\	.	16gg#\LL	.	.	.	.	.	16g#\LL	-mo-	.	.	.	.
.	.	.	.	.	16aa\	.	.	.	.	.	16a\	.	.	.	.	.
8E\J	.	8EE\J	8ee\J	.	16bb\	.	.	.	.	.	16b\	.	.	.	.	.
.	.	.	.	.	16gg#\JJ	.	.	.	.	.	16a\JJ	.	.	.	.	.
!LO:LB:g=original	!	!	!	!	!LO:TX:t=P:problem:mixed beam	!	!	!	!	!	!	!	!	!	!	!
8F#\L	.	8FF#\L	8cc#\L	.	8aa\L	.	.	.	.	.	8.a\	-ve-	.	.	.	.
8E\	.	8EE\	8cc#\	.	8a/	.	.	.	.	.	.	.	.	.	.	.
.	.	.	.	.	.	.	.	.	.	.	16a\	-bi-	.	.	.	.
8F#\	.	8FF#\	8cc#\	.	8a/	.	.	.	.	.	8a\	-tur	.	.	.	.
8C#\J	6	8CC#\J	8ee\J	.	8ccc#\J	.	.	.	.	.	8cc#\	do-	.	.	.	.
!	!	!	!	!	!LO:LB:g=original	!	!	!	!	!	!	!	!	!	!	!
=32	=32	=32	=32	=32	=32	=32	=32	=32	=32	=32	=32	=32	=32	=32	=32	=32
8AA/L	.	8AAA/L	8ee\L	.	8ccc#\	.	1r	.	1r	.	8cc#\	-nec	1r	.	0r	0r
8Dn/	.	8DDn/	8ff#\	.	4bb\	.	.	.	.	.	8b\	de-	.	.	.	.
8D/	.	8DD/	8ff#\	.	.	.	.	.	.	.	8b\	-spi-	.	.	.	.
16C#/L	.	16CC#/L	8ff#\J	.	8aa\	.	.	.	.	.	16a\	-ci-	.	.	.	.
16D/JJ	.	16DD/JJ	.	.	.	.	.	.	.	.	16a\	-at	.	.	.	.
!	!	!	!	!	!	!	!	!	!	!	!LO:LB:g=original	!	!	!	!	!
8E\L	.	8EE\L	8b\L	.	8gg#\L	.	.	.	.	.	8g#\	i-	.	.	.	.
8DnX\	4 2	8DDnX\	8b\	.	8ee\	.	.	.	.	.	8e\	-ni-	.	.	.	.
8C#\	6	8CC#\	8ee\	.	8aa\	.	.	.	.	.	8a\	-mi-	.	.	.	.
8E\J	.	8EE\J	8ff#\J	.	8bb\J	.	.	.	.	.	8b\	-cos	.	.	.	.
!	!	!	!	!	!	!	!	!	!LO:LB:g=original	!	!	!	!	!	!	!
=33	=33	=33	=33	=33	=33	=33	=33	=33	=33	=33	=33	=33	=33	=33	=33	=33
!LO:TX:t=P:problem:mixed beam	!	!LO:TX:t=P:problem:mixed beam	!	!	!	!	!	!	!	!	!	!	!	!	!	!
8E\L	6 4	8EE\L	4cc#\	.	4aa\	.	2r	.	2r	.	(4a\	su-	2r	.	.	.
8D#\	.	8DD#\	.	.	.	.	.	.	.	.	.	.	.	.	.	.
8E\	#	8EE\	4b\	.	4gg#Xt\	.	.	.	.	.	4g#X\)	.	.	.	.	.
8EE/J	.	8EEE/J	.	.	.	.	.	.	.	.	.	.	.	.	.	.
!	!	!LO:LB:g=original	!	!	!	!	!	!	!	!	!	!	!	!	!	!
!LO:TX:t=P:problem:mixed beam	!	!LO:TX:t=P:problem:mixed beam	!	!	!LO:TX:t=P:problem:mixed beam	!	!	!	!	!	!	!	!	!	!	!
8AA/L	.	8AAA/L	8cc#/L	.	8aa\L	.	4r	.	4r	.	4a\	-os	4r	.	.	.
!LO:TX:a:t=|	!	!	!	!	!	!	!	!	!	!	!	!	!	!	!	!
8F#\	.	8FF#\	8f#/	.	8f#/	.	.	.	.	.	.	.	.	.	.	.
!LO:TX:a:t=|	!	!	!	!	!	!	!	!	!	!	!	!	!	!	!	!
8Dn\	.	8DDn\	8dn/	.	8dn/	.	8r	.	8r	.	8r	.	8r	.	.	.
!LO:TX:a:t=|	!	!	!	!	!	!	!	!	!	!	!	!	!	!	!	!
8E\J	.	8EE\J	8e/J	.	8e/J	.	8E\	Dis-	8B\	dis-	8g#\	di-	8ee\	Di-	.	.
!	!	!	!LO:LB:g=original	!	!	!	!LO:LB:g=original	!	!	!	!	!	!	!	!LO:LB:g=original	!
=34	=34	=34	=34	=34	=34	=34	=34	=34	=34	=34	=34	=34	=34	=34	=34	=34
!LO:TX:a:t=Tut	!	!LO:TX:a:t=Tu&colon;	!	!	!LO:TX:t=P:problem:mixed beam	!	!	!	!	!	!	!	!	!	!	!
4AA/	.	4AAA/	8A/L	.	16A/LL	.	8A\	-per-	8c#\	-per-	8a\	-sper-	16ee\LL	-sper-	8ee\L	8ee\L
.	.	.	.	.	16aa\	.	.	.	.	.	.	.	16dd\JJ	.	.	.
.	.	.	8c#/	.	16aa\	.	8A\	-sit	8c#\	-sit	8a\	-sit	16cc#\LL	-sit	8ee\	8ee\
.	.	.	.	.	16aa\JJ	.	.	.	.	.	.	.	16b\JJ	.	.	.
8r	.	8r	8e/	.	16aa\LL	.	8A\	de-	8c#\	de-	8a\	de-	8a\	de-	8ee\	8ee\
.	.	.	.	.	16aa\	.	.	.	.	.	.	.	.	.	.	.
8D#/	.	8DD#/	8f#/J	.	16bb\	.	16BB/	-dit	16d\	-dit	16f#\	-dit	16b\	-dit	8ff#\J	8ff#\J
.	.	.	.	.	16bb\JJ	.	16BB/	pau-	16d\	pau-	16f#\	pau-	16g#\	pau-	.	.
!	!	!	!LO:TX:t=P:problem:mixed beam	!	!LO:TX:t=P:problem:mixed beam	!	!	!	!	!	!	!	!LO:LB:g=original	!	!	!
8C#/L	6	8CC#/L	16e/LL	.	16aa\LL	.	8C#/	-pe-	8e\	-pe-	8e\	-pe-	8a\	-pe-	8ee\L	8ee\L
.	.	.	16ee\	.	16a/	.	.	.	.	.	.	.	.	.	.	.
8BB/	.	8BBB/	16dd#\	.	16a/	.	8BB/	-ri-	16e\	-ri-	16e\	-ri-	16a\	-ri-	8ee\	8ee\
.	.	.	16dd#\JJ	.	16a/JJ	.	.	.	16e\	-bus	16e\	-bus	16a\	-bus	.	.
!	!	!	!	!	!LO:TX:t=P:problem:mixed beam	!	!	!	!	!	!LO:LB:g=original	!	!	!	!	!
8C#/	6	8CC#/	16ee\LL	.	16a/LL	.	8C#/	-bus	8r	.	8r	.	8r	.	8ee\	8ee\
.	.	.	16ee\	.	16aa\	.	.	.	.	.	.	.	.	.	.	.
8AA/J	.	8AAA/J	16cc#\	.	16aa\	.	8AA/	jus-	8e\	jus-	8a\	jus-	8ee\	Ju-	8ee\J	8ee\J
.	.	.	16cc#\JJ	.	16aa\JJ	.	.	.	.	.	.	.	.	.	.	.
=35	=35	=35	=35	=35	=35	=35	=35	=35	=35	=35	=35	=35	=35	=35	=35	=35
!	!	!	!	!	!LO:TX:t=P:problem:mixed beam	!	!	!	!	!	!	!	!LO:N:vis=8.	!	!	!
8Dn\L	.	8DDn\L	16ff#\LL	.	16a/LL	.	8D/	-ti-	8d\	-ti-	8a\	-ti-	8ff#\	-sti-	4ee\	4ee\
.	.	.	16ff#\	.	16aa\	.	.	.	.	.	.	.	.	.	.	.
8C#\	.	8CC#\	16ee\	.	16aa\	.	16C#/	-ti-	16e\	-ti-	16a\	-ti-	16ee\	-ti-	.	.
.	.	.	16ee\JJ	.	16aa\JJ	.	16C#/	-a	16e\	-a	16a\	-a	16ee\	-a	.	.
!	!	!	!	!	!LO:LB:g=original	!	!	!	!	!	!	!	!	!	!	!
8BB\	7	8BBB\	16dd#\LL	.	16aa\LL	.	8BB/	e-	8e\	e-	8a\	e-	8dd\	e-	4r	4r
.	.	.	16dd#\	.	16aa\	.	.	.	.	.	.	.	.	.	.	.
8E\J	#7	8EE\J	16dd#\	.	16gg#\	.	8E\	-jus	8e\	-jus	8g#\	-jus	8ee\	-jus	.	.
.	.	.	16dd#\JJ	.	16gg#\JJ	.	.	.	.	.	.	.	.	.	.	.
!	!	!	!	!	!LO:TX:t=P:problem:mixed beam	!	!	!	!	!	!	!	!	!	!	!
*	*	*	*	*	*	*	*	*	*	*	*2\right	*	*	*	*	*
!LO:LB:g=original	!	!	!	!	!	!	!	!	!LO:LB:g=original	!	!	!	!	!	!	!LO:LB:g=original
8AA/L	.	8AAA/L	8cc#\L	.	16aa\LL	.	8AA/L	ma-	8e\L	ma-	2a\	ma-	8cc#\L	ma-	8ee\L	8ee\L
.	.	.	.	.	16a/	.	.	.	.	.	.	.	.	.	.	.
8BB/	.	8BBB/	8dd#\	.	16a/	.	8BB/	.	8d\	.	.	.	8dd\	.	8ee\	8ee\
.	.	.	.	.	16a/JJ	.	.	.	.	.	.	.	.	.	.	.
!	!	!	!	!	!LO:TX:t=P:problem:mixed beam	!	!	!	!	!	!	!	!	!	!	!
8C#/	.	8CC#/	8ee\	.	16a/LL	.	8C#/	.	8c#\	.	.	.	8ee\	.	8ee\	8ee\
.	.	.	.	.	16aa\	.	.	.	.	.	.	.	.	.	.	.
8BB/J	.	8BBB/J	8dd#\J	.	16aa\	.	8BB/J	.	8d\J	.	.	.	8dd\J	.	8ee\J	8ee\J
.	.	.	.	.	16aa\JJ	.	.	.	.	.	.	.	.	.	.	.
!	!	!	!	!	!	!	!LO:PB:g=original	!	!	!	!	!	!	!	!	!
=36	=36	=36	=36	=36	=36	=36	=36	=36	=36	=36	=36	=36	=36	=36	=36	=36
!	!	!	!	!	!LO:TX:t=P:problem:mixed beam	!	!	!	!	!	!	!	!	!	!	!
8AA/L	.	8AAA/L	8cc#\L	.	16aa\LL	.	8AA/L	.	8e\L	.	4a\	.	8cc#\L	.	8ee\L	8ee\L
.	.	.	.	.	16a/	.	.	.	.	.	.	.	.	.	.	.
8BB/	.	8BBB/	8dd#\	.	16a/	.	8BB/J	.	8d\J	.	.	.	8dd\	.	8ee\J	8ee\J
.	.	.	.	.	16a/JJ	.	.	.	.	.	.	.	.	.	.	.
!	!	!	!	!	!LO:TX:t=P:problem:mixed beam	!	!	!	!	!	!	!	!	!	!	!
8C#/	.	8CC#/	8ee\	.	16a/LL	.	8C#/	-net	8c#\	-net	(8a\	-net	8ee\J	-net	4r	4r
.	.	.	.	.	16aa\	.	.	.	.	.	.	.	.	.	.	.
8BB/J	.	8BBB/J	8cc#\J	.	16aa\	.	8BB/	in	8d\	in	8g#\)	in	8dd\	in	.	.
.	.	.	.	.	16aa\JJ	.	.	.	.	.	.	.	.	.	.	.
!	!	!	!LO:LB:g=original	!	!	!	!	!	!	!	!	!	!	!	!	!
8AA/L	.	8AAA/L	8cc#\L	.	8aa\L	.	8AA/	sae-	8e\	sae-	8a\	sae-	8cc#\	sae-	8ee\L	8ee\L
8D#/	6	8DD#/	8dd#\	.	8bb\	.	16D/	-cu-	16f#\	-cu-	16a\	-cu-	16b\	-cu-	8ff#\	8ff#\
.	.	.	.	.	.	.	16D/	-lum	16f#\	-lum	16a\	-lum	16b\	-lum	.	.
!	!	!	!	!	!	!	!	!	!	!	!	!	!LO:LB:g=original	!	!	!
!	!	!	!	!	!	!	!	!	!	!	!	!	!LO:TX:a:t=h	!	!	!
8E/	5 4	8EE/	8.b\	.	8.aaT\	.	8.E\	sae-	8.e\	sae-	8.a\	sae-	8.b\	sae-	8ee\	8ee\
8EE/J	#	8EEE/J	.	.	.	.	.	.	.	.	.	.	.	.	8ee\J	8ee\J
.	.	.	16b\Jk	.	16gg#\Jk	.	16EE/	-cu-	16e\	-cu-	16g#\	-cu-	16b\	-cu-	.	.
!	!	!LO:PB:g=original	!	!	!	!	!	!	!	!	!	!	!	!	!	!
=37	=37	=37	=37	=37	=37	=37	=37	=37	=37	=37	=37	=37	=37	=37	=37	=37
!LO:TX:t=P:problem:mixed beam	!	!LO:TX:t=P:problem:mixed beam	!	!	!	!	!	!	!	!	!	!	!	!	!	!
8AA/L	.	8AAA/L	16cc#\LL	.	16aa\LL	.	8AA/	-li	8c#\	-li	8a\	-li	8a\	-li	4ee\	4ee\
.	.	.	16cc#\	.	16ee\	.	.	.	.	.	.	.	.	.	.	.
!	!	!	!	!	!	!	!	!	!	!	!LO:LB:g=original	!	!	!	!	!
8A\	.	8AA\	16cc#\	.	16ee\	.	16A\	cor-	16A/	cor-	16e\	cor-	16cc#\	cor-	.	.
.	.	.	16cc#\JJ	.	16ee\JJ	.	16A\	-nu	16A/	-nu	16e\	-nu	16cc#\	-nu	.	.
8A\	.	8AA\	16cc#\LL	.	16ee\LL	.	8A\	e-	8A/	e-	8e\	e-	8cc#\	e-	4r	4r
.	.	.	16cc#\	.	16ee\	.	.	.	.	.	.	.	.	.	.	.
8A\J	.	8AA\J	16cc#\	.	16ee\	.	8A\	-jus	8A/	-jus	8a\	-jus	8cc#\	-jus	.	.
.	.	.	16cc#\JJ	.	16ee\JJ	.	.	.	.	.	.	.	.	.	.	.
8G#\L	6	8GG#\L	8b/L	.	8ee\L	.	8G#\	e-	8e\	e-	8b\	e-	8b\	e-	8ee\L	8gg#\L
!	!	!	!	!	!	!	!	!	!LO:LB:g=original	!	!	!	!	!	!	!
8F#\	6\	8FF#\	8b/	.	8ee\J	.	8F#\	-xal-	16d#X\LL	-xal-	8a\	-xal-	16cc#\LL	-xul-	8b\	8aa\
.	.	.	.	.	.	.	.	.	16f#\JJ	-ta-	.	.	16dd#X\JJ	.	.	.
!	!	!	!	!	!LO:LB:g=original	!	!	!	!	!	!	!	!	!	!	!
8E\	.	8EE\	8g#/	.	8ee\L	.	8E\	-ta-	8e\	-bi-	8g#\	-ta-	8ee\	-ta-	8ff#\	8.gg#\
8B\J	#7	8BB\J	8a/J	.	8dd#\J	.	8B\	-bi-	8B\	-tur	8a\	-bi-	8dd#\	-bi-	8b\J	.
.	.	.	.	.	.	.	.	.	.	.	.	.	.	.	.	16ff#\Jk
=38	=38	=38	=38	=38	=38	=38	=38	=38	=38	=38	=38	=38	=38	=38	=38	=38
!LO:TX:t=P:problem:mixed beam	!	!LO:TX:t=P:problem:mixed beam	!	!	!	!	!	!	!	!	!	!	!	!	!	!
8E\L	.	8EE/L	8g#/L	.	8ee\L	.	8E\	-tur	8B\	in	8g#\	-tur	8ee\	-tur	8ee\L	8gg#\L
8A\	6	8AA/	16a/L	.	16ff#\L	.	8A\	in	8c#\	glo-	8a\	in-	16ff#\LL	in	16ff#\L	16aa\L
.	.	.	16g#/JJ	.	16ee\JJ	.	.	.	.	.	.	.	16ee\JJ	.	16ee\JJ	16gg#\JJ
!	!	!	!	!	!	!	!LO:LB:g=original	!	!	!	!	!	!	!	!LO:LB:g=original	!
8B\	6 4	8BB/	8.f#/L	.	8.ee\L	.	8.B\	glo-	8.B\	.	8.f#\	-glo-	8.dd#X\	glo-	8b/L	8ff#\L
8BB/J	#	8BBB\J	.	.	.	.	.	.	.	.	.	.	.	.	8b/J	8ff#\J
.	.	.	16g#/Jk	.	16dd#\Jk	.	16BB/	-ri-	16B\	-ri-	16f#\	-ri-	16dd#\	-ri-	.	.
!	!	!	!	!	!LO:TX:t=P:problem:mixed beam	!	!	!	!	!	!	!	!	!	!	!
8E\L	.	8EE\L	8g#/L	.	16ee\LL	.	4E\	-a	4B\	-a	4g#\	-a	4ee\	-a	4g#/	4ee\
.	.	.	.	.	16e/	.	.	.	.	.	.	.	.	.	.	.
8F#\	.	8FF#\	8a/	.	16e/	.	.	.	.	.	.	.	.	.	.	.
.	.	.	.	.	16e/JJ	.	.	.	.	.	.	.	.	.	.	.
!	!	!	!	!	!LO:TX:t=P:problem:mixed beam	!	!	!	!	!	!	!	!	!	!	!
8G#\	.	8GG#\	8b/	.	16e/LL	.	8r	.	8r	.	8r	.	8r	.	4r	4r
.	.	.	.	.	16ee\	.	.	.	.	.	.	.	.	.	.	.
!	!	!	!	!	!	!	!	!	!	!	!	!	!LO:LB:g=original	!	!	!
8E\J	.	8EE\J	8g#/J	.	16ee\	.	8E\	Pec-	8e\	pec-	8g#\	pec-	8b\	pec-	.	.
.	.	.	.	.	16ee\JJ	.	.	.	.	.	.	.	.	.	.	.
=39	=39	=39	=39	=39	=39	=39	=39	=39	=39	=39	=39	=39	=39	=39	=39	=39
8E\L	6 4	8EE\L	16a/LL	.	16cc#\LL	.	8E\	-ca-	8e\	-ca-	8a\	-ca-	8cc#\	-ca-	2r	8e/L
.	.	.	16a/	.	16cc#\	.	.	.	.	.	.	.	.	.	.	.
!	!	!	!LO:LB:g=original	!	!	!	!	!	!	!	!	!	!	!	!	!
8E\	3	8EE\	16g#/	.	16b\	.	16E\	-tor	16E/	-tor	16g#\	-tor	16b\	-tor	.	16e/L
.	.	.	16g#/JJ	.	16b\JJ	.	16E\	vi-	16E/	vi-	16g#\	vi-	16b\	vi-	.	16e/JJ
!	!	!	!	!	!	!	!	!	!	!	!LO:LB:g=original	!	!	!	!	!
8E\	6 4	8EE\	16a/LL	.	16cc#\LL	.	8E\	-de-	8E/	-de-	8a\	-de-	8cc#\	-de-	.	16e/LL
.	.	.	16a/	.	16cc#\	.	.	.	.	.	.	.	.	.	.	16e/
8E\J	3	8EE\J	16g#/	.	16b\	.	16E\	-bit	16e\	-bit	16g#\	-bit	16b\	-bit	.	16e/
.	.	.	16g#/JJ	.	16b\JJ	.	16E\	et	16e\	et	16g#\	et	16b\	et	.	16e/JJ
!	!	!	!	!	!	!	!	!	!LO:LB:g=original	!	!	!	!	!	!	!
8E\L	6: 4:	8EE\L	16a/LL	.	16cc#\LL	.	8.E\	i-	4.e\	i-	4.a\	i-	4.cc#\	i-	8e/L	2r
.	.	.	16a/	.	16cc#\	.	.	.	.	.	.	.	.	.	.	.
8E\	.	8EE\	16a/	.	16cc#\	.	.	.	.	.	.	.	.	.	16e/L	.
.	.	.	16a/JJ	.	16cc#\JJ	.	16E\	-ras-	.	.	.	.	.	.	16e/JJ	.
8E\	.	8EE\	16a/LL	.	16cc#\LL	.	8.E\	-ce-	.	.	.	.	.	.	16e/LL	.
.	.	.	16a/	.	16cc#\	.	.	.	.	.	.	.	.	.	16e/	.
8E\J	7 4	8EE\J	16f#/	.	16dd#X\	.	.	.	8e\	-ras-	8f#\	-ras-	8dd#X\	-ras-	16e/	.
.	.	.	16f#/JJ	.	16dd#\JJ	.	16E\	-tur	.	.	.	.	.	.	16e/JJ	.
!LO:LB:g=original	!	!LO:LB:g=original	!	!	!LO:LB:g=original	!	!	!	!	!	!	!	!	!	!	!LO:LB:g=original
=40	=40	=40	=40	=40	=40	=40	=40	=40	=40	=40	=40	=40	=40	=40	=40	=40
!	!	!	!	!	!LO:TX:t=P:problem:mixed beam	!	!	!	!	!	!	!	!	!	!	!
8E\L	8	8EE\L	8g#/L	.	8ee\L	.	8E\	den-	8e\	-ce-	8g#\	-ce-	8ee\	-ce-	4e/	4r
8E\	.	8EE\	8g#/J	.	8e/J	.	16E\	-ti-	8B\	-tur	8g#\	-tur	8e/	-tur	.	.
.	.	.	.	.	.	.	16E\	-bus	.	.	.	.	.	.	.	.
8E\	.	8EE\	16b\LL	.	16gg#\LL	.	8E\	su-	8B\	den-	8g#\	den-	8b\	den-	16aa\LL	16bb\LL
.	.	.	16b\	.	16gg#\	.	.	.	.	.	.	.	.	.	16gg#\	16bb\
8E\J	.	8EE\J	16cc#\	.	16aa\	.	8E\	-is	16e\	-ti-	16a\	-ti-	16cc#\	-ti-	16aa\	16ccc#\
.	.	.	16b\JJ	.	16gg#\JJ	.	.	.	16e\	-bus	16g#\	-bus	16b\	-bus	16gg#\JJ	16bb\JJ
!LO:TX:t=P:problem:mixed beam	!	!LO:TX:t=P:problem:mixed beam	!	!	!	!	!LO:LB:g=original	!	!	!	!	!	!	!	!	!
8F#\L	4 9	8FF#\L	16b/LL	.	16gg#\LL	.	8F#\	fre-	8c#\	su-	16g##X\LL	su-	16b\LL	su-	16gg#\LL	16bb\LL
.	.	.	16a/	.	16ff#\	.	.	.	.	.	16f#\JJ	.	16a\JJ	.	16ff#\	16aa\
8F#\	.	8FF#\	16a/	.	16ff#\	.	8F#\	-met	8c#\	-is	8f#\	-is	8a\	-is	16ff#\	16aa\
.	.	.	16a/JJ	.	16ff#\JJ	.	.	.	.	.	.	.	.	.	16ff#\JJ	16aa\JJ
8B\	3 8	8BB\	16a/LL	.	16ff#\LL	.	8BB/	et	16B\	fre-	16f#\	frem-	16aT\	fre-	16ff#\LL	16aa\LL
.	.	.	16a/	.	16ff#\	.	.	.	16B\	-met	16f#\	-et	16a\	-met	16ff#\	16aa\
!	!	!	!	!	!	!	!	!	!	!	!	!	!LO:LB:g=original	!	!	!
8BB/J	.	8BBB/J	16b/	.	16gg#\	.	8BB/	ta-	16B\	et	16g##\	et	16b\	et	16gg#\	16bb\
.	.	.	16a/JJ	.	16ff#\JJ	.	.	.	16B\	ta-	16f#\	ta-	16a\	ta-	16ff#\JJ	16aa\JJ
!	!	!	!LO:LB:g=original	!	!	!	!	!	!	!	!LO:LB:g=original	!	!	!	!	!
=41	=41	=41	=41	=41	=41	=41	=41	=41	=41	=41	=41	=41	=41	=41	=41	=41
8E\L	.	8EE\L	16a/LL	.	16ff#\LL	.	8E\	-bes-	8B\	-bes-	16f#\LL	-bes-	16a\LL	-bes-	16ff#\LL	16aa\LL
.	.	.	16g#/	.	16ee\	.	.	.	.	.	16e\JJ	.	16g#\JJ	.	16ee\	16gg#\
8E\	.	8EE\	16g#/	.	16ee\	.	8E\	-cet	8B\	-cet	8e\	-cet	8g#\	-cet	16ee\	16gg#\
.	.	.	16g#/JJ	.	16ee\JJ	.	.	.	.	.	.	.	.	.	16ee\JJ	16gg#\JJ
!LO:TX:a:t=|	!	!	!	!	!LO:TX:t=P:problem:mixed beam	!	!	!	!	!	!	!	!	!	!	!
8E\	.	8EE\	8e/L	.	8ee\L	.	8E\	de-	8E/	de-	8e\	de-	8e/	de-	8ee\L	8ee\L
!LO:TX:a:t=|	!	!	!	!	!LO:TX:b:t=|	!	!	!	!	!	!	!	!	!	!	!
8E\J	.	8EE\J	8e/	.	8e/	.	8E\	-si-	8E/	-si-	8e\	-si-	8e/	-si-	8ee\	8ee\J
!LO:TX:a:t=|	!	!	!	!	!LO:TX:b:t=|	!	!	!	!LO:TX:a:t=|	!	!	!	!	!	!	!
8E\L	.	8EE\L	8e/	.	8e/	.	8E\	-de-	8E/	-de-	8e\	-de-	8e/	-de-	8ee\	8ee\L
!LO:TX:a:t=|	!	!	!	!	!LO:TX:b:t=|	!	!	!	!LO:TX:a:t=|	!	!	!	!	!	!	!
8E\	.	8EE\	8e/J	.	8e/J	.	16E\	-ri-	16E/	-ri-	16e\	-ri-	16e/	-ri-	8ee\J	8ee\
!	!	!	!	!	!	!	!	!	!LO:TX:a:t=|	!	!	!	!	!	!	!
.	.	.	.	.	.	.	16E\	-um	16E/	-um	16e\	-um	16e/	-um	.	.
!LO:TX:a:t=|	!	!	!	!	!LO:TX:b:t=|	!	!	!	!LO:TX:a:t=|	!	!	!	!	!	!LO:LB:g=original	!
8E\	.	8EE\	8e/L	.	8e/L	.	8E\	pec-	8E/	pec-	8e\	pec-	8e/	pec-	8ee\L	8ee\
!LO:TX:a:t=|	!	!	!	!	!LO:TX:b:t=|	!	!	!	!LO:TX:a:t=|	!	!	!	!	!	!	!
8E\J	.	8EE\J	8e/J	.	8e/J	.	8E\	-ca-	8E/	-ca-	8e\	-ca-	8e/	-ca-	8ee\J	8ee\J
=42	=42	=42	=42	=42	=42	=42	=42	=42	=42	=42	=42	=42	=42	=42	=42	=42
!LO:TX:a:t=|	!	!	!	!	!LO:TX:a:t=|	!	!	!	!LO:TX:a:t=|	!	!	!	!	!	!	!
8B\L	.	8BB\L	4b\	.	4b\	.	4B\	-to-	4B\	-to-	4b\	-to-	4b\	-to-	8bb\L	8bb\L
!LO:TX:a:t=|	!	!	!	!	!	!	!	!	!	!	!	!	!	!	!	!
8B\	.	8BB\	.	.	.	.	.	.	.	.	.	.	.	.	8bb\	8bb\
!LO:TX:a:t=|	!	!	!	!	!LO:TX:a:t=|	!	!	!	!LO:TX:a:t=|	!	!	!	!	!	!	!
8B\	.	8BB\	8b\L	.	8b\L	.	8B\	-rum	8B\	-rum	8b\	-rum	8b\	-rum	8bb\	8bb\
!LO:TX:a:t=|	!	!	!	!	!LO:TX:a:t=|	!	!	!	!LO:TX:a:t=|	!	!	!	!	!	!	!
8G#\J	.	8EE\J	8b\J	.	8b\J	.	8G#\	pe-	8G#/	pe-	8g#\	pe-	8g#\	pe-	8bb\J	8bb\J
!LO:TX:t=P:problem:mixed beam	!	!	!LO:TX:t=P:problem:mixed beam	!	!	!	!	!	!	!	!	!	!	!	!	!
!LO:TX:a:t=|	!	!LO:TX:t=P:problem:mixed beam	!	!	!LO:TX:t=P:problem:mixed beam	!	!LO:TX:t=P:problem:mixed beam	!	!LO:TX:a:t=|	!	!	!	!LO:TX:t=P:problem:mixed beam	!	!LO:TX:t=P:problem:mixed beam	!LO:TX:t=P:problem:mixed beam
8c#\L	.	8C#\L	8cc#\L	.	8cc#\L	.	8c#\L	-ri-	8c#\L	-ri-	8cc#\L	-ri-	8cc#\L	-ri-	8ccc#\L	8ccc#\L
!LO:TX:a:t=|	!	!	!	!	!	!	!	!	!LO:TX:a:t=|	!	!	!	!	!	!	!
8A\	.	8AA\	8a\	.	8a\	.	8A\	.	8A\J	.	8a\J	.	8a\	.	8aa\	8aa\
!	!	!	!	!	!	!	!	!	!LO:TX:t=P:problem:mixed beam	!	!	!	!	!	!	!
!LO:TX:a:t=|	!	!	!	!	!	!	!	!	!LO:TX:a:t=|	!	!LO:TX:t=P:problem:mixed beam	!	!	!	!	!
8B\	.	8BB\	8b/	.	8b\	.	8B\	.	8B\L	.	8b\L	.	8b\	.	8bb\	8bb\
!	!	!	!	!	!	!	!	!	!LO:TX:a:t=|	!	!	!	!	!	!	!
8BB/J	.	8BBB/J	8B\J	.	8B/J	.	8BB/J	.	8BB/J	.	8B/J	.	8B/J	.	8b/J	8b/J
!	!	!	!	!	!LO:LB:g=original	!	!LO:LB:g=original	!	!	!	!	!	!LO:LB:g=original	!	!	!LO:LB:g=original
=43	=43	=43	=43	=43	=43	=43	=43	=43	=43	=43	=43	=43	=43	=43	=43	=43
!LO:TX:t=P:problem:mixed beam	!	!LO:TX:t=P:problem:mixed beam	!	!	!LO:TX:t=P:problem:mixed beam	!	!	!	!	!	!	!	!	!	!	!
8E\L	.	8EE/L	16e/LL	.	16e/LL	.	4E\	-bit.	4E/	-bit.	4e\	-bit,	4e/	-bit.	16ee\LL	16ee\LL
.	.	.	16b/	.	16gg#\	.	.	.	.	.	.	.	.	.	16gg#\	16bb\
8G#\	6	8GG#/	16a/	.	16ff#\	.	.	.	.	.	.	.	.	.	16ff#\	16aa\
.	.	.	16g#/JJ	.	16ee\JJ	.	.	.	.	.	.	.	.	.	16ee\JJ	16gg#\JJ
8B\	.	8BB/	8.f#/L	.	8.dd#\L	.	4r	.	4r	.	4r	.	4r	.	8b/L	8.ff#\L
8BB/J	.	8BBB\J	.	.	.	.	.	.	.	.	.	.	.	.	8b/J	.
.	.	.	16f#/Jk	.	16dd#\Jk	.	.	.	.	.	.	.	.	.	.	16ff#\Jk
4E\	.	4EE\	4g#/	.	4ee\	.	2r	.	2r	.	2r	.	2r	.	4e/	4gg#\
4r	.	4r	4r	.	4r	.	.	.	.	.	.	.	.	.	4r	4r
!LO:LB:g=original	!	!LO:LB:g=original	!LO:LB:g=original	!	!	!	!	!	!	!	!LO:LB:g=original	!	!	!	!	!
=44||	=44||	=44||	=44||	=44||	=44||	=44||	=44||	=44||	=44||	=44||	=44||	=44||	=44||	=44||	=44||	=44||
*M4/4	*	*M4/4	*M4/4	*	*M4/4	*	*M4/4	*	*M4/4	*	*M4/4	*	*M4/4	*	*M4/4	*M4/4
*met(c)	*	*met(c)	*met(c)	*	*met(c)	*	*met(c)	*	*met(c)	*	*met(c)	*	*met(c)	*	*met(c)	*met(c)
!	!	!	!	!	!	!	!	!	!	!	!LO:TX:t=P:problem:cztery puste takty ze względu na Canto	!	!	!	!	!
!	!	!LO:TX:t=P:problem:cztery puste takty ze względu na Canto	!LO:TX:t=P:problem:cztery puste takty ze względu na Canto	!	!LO:TX:t=P:problem:cztery puste takty ze względu na Canto	!	!LO:TX:t=P:problem:cztery puste takty ze względu na Canto	!	!LO:TX:t=P:problem:cztery puste takty ze względu na Canto	!	!	!	!	!	!LO:TX:t=P:problem:cztery puste takty ze względu na Canto	!LO:TX:t=P:problem:cztery puste takty ze względu na Canto
*MM80	*	*MM80	*MM80	*	*MM80	*	*MM80	*	*MM80	*	*MM80	*	*MM80	*	*MM80	*MM80
!	!	!	!	!	!	!	!	!	!	!	!	!	!LO:TX:a:t=Adagio	!	!	!LO:TX:a:t=[quarter]=80
00r	.	1ryy	1ryy	.	1ryy	.	1ryy	.	1ryy	.	1ryy	.	4e/	Glo-	1ryy	1ryy
.	.	.	.	.	.	.	.	.	.	.	.	.	8f#/	-ri-	.	.
.	.	.	.	.	.	.	.	.	.	.	.	.	8f#/	-a	.	.
.	.	.	.	.	.	.	.	.	.	.	.	.	4g#/	Pa-	.	.
.	.	.	.	.	.	.	.	.	.	.	.	.	8g#/	-tri	.	.
.	.	.	.	.	.	.	.	.	.	.	.	.	8g#/	et	.	.
=45	=45	=45	=45	=45	=45	=45	=45	=45	=45	=45	=45	=45	=45	=45	=45	=45
.	.	1ryy	1ryy	.	1ryy	.	1ryy	.	1ryy	.	1ryy	.	4g#/	Fi-	1ryy	1ryy
.	.	.	.	.	.	.	.	.	.	.	.	.	4f#/	-li-	.	.
.	.	.	.	.	.	.	.	.	.	.	.	.	4g#/	-o	.	.
.	.	.	.	.	.	.	.	.	.	.	.	.	4r	.	.	.
=46	=46	=46	=46	=46	=46	=46	=46	=46	=46	=46	=46	=46	=46	=46	=46	=46
.	.	1ryy	1ryy	.	1ryy	.	1ryy	.	1ryy	.	1ryy	.	4g#/	et	1ryy	1ryy
.	.	.	.	.	.	.	.	.	.	.	.	.	8g#/	Spi-	.	.
.	.	.	.	.	.	.	.	.	.	.	.	.	8g#/	-ri-	.	.
!	!	!	!	!	!	!	!	!	!	!	!	!	!LO:LB:g=original	!	!	!
.	.	.	.	.	.	.	.	.	.	.	.	.	4f#/	-tu-	.	.
.	.	.	.	.	.	.	.	.	.	.	.	.	4e/	-i	.	.
=47	=47	=47	=47	=47	=47	=47	=47	=47	=47	=47	=47	=47	=47	=47	=47	=47
.	.	1ryy	1ryy	.	1ryy	.	1ryy	.	1ryy	.	1ryy	.	4f#/	San-	1ryy	1ryy
.	.	.	.	.	.	.	.	.	.	.	.	.	4g#/	.	.	.
.	.	.	.	.	.	.	.	.	.	.	.	.	4f#/	-cto.	.	.
.	.	.	.	.	.	.	.	.	.	.	.	.	4r	.	.	.
!LO:LB:g=original	!	!	!	!	!	!	!	!	!	!	!	!	!	!	!	!
=48||	=48||	=48||	=48||	=48||	=48||	=48||	=48||	=48||	=48||	=48||	=48||	=48||	=48||	=48||	=48||	=48||
*M4/4	*	*M4/4	*M4/4	*	*M4/4	*	*M4/4	*	*M4/4	*	*M4/4	*	*M4/4	*	*M4/4	*M4/4
*met(c)	*	*met(c)	*met(c)	*	*met(c)	*	*met(c)	*	*met(c)	*	*met(c)	*	*met(c)	*	*met(c)	*met(c)
!LO:TX:b:t=Gloria Patri	!	!LO:TX:b:t=Gloria Patri	!LO:TX:a:t=Gloria Patri\nTacet	!	!LO:TX:a:t=Gloria Tacet	!	!LO:TX:a:t=Gloria Patri\nTacet	!	!LO:TX:a:t=Gloria\nTacet	!	!LO:TX:a:t=Adagio	!	!	!	!LO:TX:a:t=Gloria Tacet	!LO:TX:a:t=Gloria\nTacet
4E\	.	4EE\	1ryy	.	1ryy	.	1ryy	.	1ryy	.	4e\	Glo-	4g#/	Glo-	1ryy	1ryy
4BB/	.	4BBB/	.	.	.	.	.	.	.	.	8f#\	-ri-	8a/	-ri-	.	.
.	.	.	.	.	.	.	.	.	.	.	8f#\	-a	8a/	-a	.	.
*2\right	*	*2\right	*	*	*	*	*	*	*	*	*	*	*	*	*	*
2E\	.	2EE\	.	.	.	.	.	.	.	.	4g#\	Pa-	4b\	Pa-	.	.
.	.	.	.	.	.	.	.	.	.	.	8g#\	-tri	8b\	-tri	.	.
.	.	.	.	.	.	.	.	.	.	.	8g#\	et	8b\	et	.	.
=49	=49	=49	=49	=49	=49	=49	=49	=49	=49	=49	=49	=49	=49	=49	=49	=49
4E\	.	4EE\	1ryy	.	1ryy	.	1ryy	.	1ryy	.	4g#\	Fi-	4b\	Fi-	1ryy	1ryy
4B\	.	4BB\	.	.	.	.	.	.	.	.	4f#\	-li-	4a\	-li-	.	.
4E\	.	4EE\	.	.	.	.	.	.	.	.	4g#\	-o	4b\	-o	.	.
4r	.	4r	.	.	.	.	.	.	.	.	4r	.	4r	.	.	.
=50	=50	=50	=50	=50	=50	=50	=50	=50	=50	=50	=50	=50	=50	=50	=50	=50
4E\	.	4EE\	1ryy	.	1ryy	.	1ryy	.	1ryy	.	4g#\	et	4b\	et	1ryy	1ryy
4E\	.	4EE\	.	.	.	.	.	.	.	.	8g#\	Spi-	8b\	Spi-	.	.
.	.	.	.	.	.	.	.	.	.	.	8g#\	-ri-	8b\	-ri-	.	.
4B\	#	4BB\	.	.	.	.	.	.	.	.	4f#\	-tu-	4a\	-tu-	.	.
4c#\	3	4C#\	.	.	.	.	.	.	.	.	4e\	-i	4g#\	-i	.	.
!	!	!	!	!	!	!	!	!	!	!	!LO:LB:g=original	!	!	!	!	!
=51	=51	=51	=51	=51	=51	=51	=51	=51	=51	=51	=51	=51	=51	=51	=51	=51
4B\	#	4BB\	1ryy	.	1ryy	.	1ryy	.	1ryy	.	4f#\	San-	4dd#X\	San-	1ryy	1ryy
4E\	.	4EE\	.	.	.	.	.	.	.	.	4g#\	.	4ee\	.	.	.
4B\	#	4BB\	.	.	.	.	.	.	.	.	4f#\	-cto.	4dd#\	-cto	.	.
4r	.	4r	.	.	.	.	.	.	.	.	4r	.	4r	.	.	.
!LO:LB:g=original	!	!LO:LB:g=original	!	!	!LO:LB:g=original	!	!LO:LB:g=original	!	!LO:LB:g=original	!	!	!	!LO:LB:g=original	!	!LO:LB:g=original	!
=52||	=52||	=52||	=52||	=52||	=52||	=52||	=52||	=52||	=52||	=52||	=52||	=52||	=52||	=52||	=52||	=52||
*M2/2	*	*M2/2	*M2/2	*	*M2/2	*	*M2/2	*	*M2/2	*	*M2/2	*	*M2/2	*	*M2/2	*M2/2
*met(c|)	*	*met(c|)	*met(c|)	*	*met(c|)	*	*met(c|)	*	*met(c|)	*	*met(c|)	*	*met(c|)	*	*met(c|)	*met(c|)
!LO:TX:a:t=Vivace Tuti	!	!LO:TX:a:t=Viva&colon; Tu	!LO:TX:a:t=Vivace	!	!LO:TX:b:t=Sicut erat	!	!LO:TX:a:t=5	!	!	!	!	!	!	!	!	!
!LO:TX:b:t=Sicut erat	!	!LO:TX:b:t=Sicut erat	!LO:TX:b:t=Sicut erat	!	!	!	!	!	!	!	!	!	!	!	!	!LO:TX:b:t=Sicut erat
00r	.	00r	2r	.	[1ee	.	00r	.	00r	.	2r	.	[1ee	Si-	00r	00r
.	.	.	2e/	.	.	.	.	.	.	.	(2e\	Si-	.	.	.	.
=53	=53	=53	=53	=53	=53	=53	=53	=53	=53	=53	=53	=53	=53	=53	=53	=53
*	*	*	*	*	*2\right	*	*	*	*	*	*	*	*2\right	*	*	*
.	.	.	2f#/	.	2ee\]	.	.	.	.	.	2f#\)	.	2ee\]	.	.	.
*	*	*	*2\right	*	*	*	*	*	*	*	*	*	*	*	*	*
.	.	.	[2b\	.	2dd#X\	.	.	.	.	.	2b\	-cut	2dd#X\	-cut	.	.
=54	=54	=54	=54	=54	=54	=54	=54	=54	=54	=54	=54	=54	=54	=54	=54	=54
.	.	.	2b\]	.	1cc#	.	.	.	.	.	2b\	e-	2cc#\	e-	.	.
.	.	.	[2a/	.	.	.	.	.	.	.	2a\	-rat	2cc#\	-rat	.	.
=55	=55	=55	=55	=55	=55	=55	=55	=55	=55	=55	=55	=55	=55	=55	=55	=55
.	.	.	2a/]	.	2b\	.	.	.	.	.	2a\	in	2b\	in	.	.
.	.	.	2g#/	.	2ee\	.	.	.	.	.	2g#\	prin-	2ee\	prin-	.	.
=56	=56	=56	=56	=56	=56	=56	=56	=56	=56	=56	=56	=56	=56	=56	=56	=56
1r	.	1r	2.f#/	.	2ee\	.	1r	.	1r	.	2.f#\	-ci-	2ee\	-ci-	1r	1r
.	.	.	.	.	2ee\	.	.	.	.	.	.	.	2dd#X\	-pi-	.	.
.	.	.	4f#/	.	.	.	.	.	.	.	4f#\	-pi-	.	.	.	.
!	!	!	!LO:LB:g=original	!	!	!	!	!	!	!	!LO:PB:g=original	!	!	!	!	!
=57	=57	=57	=57	=57	=57	=57	=57	=57	=57	=57	=57	=57	=57	=57	=57	=57
2r	.	2r	2e/	.	2ee\	.	2r	.	2r	.	2e\	-o	2ee\	-o	2r	2r
*	*	*	*	*	*	*	*2\right	*	*2\right	*	*	*	*	*	*2\right	*2\right
2E\	.	2EE\	2ee\	.	2gg#\	.	2E\	Et	2B\	et	2g#\	et	2ee\	et	2gg#\	2bb\
=58	=58	=58	=58	=58	=58	=58	=58	=58	=58	=58	=58	=58	=58	=58	=58	=58
2F#\	7	2FF#\	2ee\	.	2aa\	.	2F#\	nunc	2A/	nunc	2a\	nunc	2ee\	nunc	2ff#\	2aa\
2B\	7 #	2BB\	2dd#X\	.	2ff#\	.	2B\	et	2A/	et	2f#\	et	2dd#X\	et	2b/	2ff#\
=59	=59	=59	=59	=59	=59	=59	=59	=59	=59	=59	=59	=59	=59	=59	=59	=59
2B\	6 4 2	2BB\	1cc#	.	2gg#\	.	(2B\	sem-	2G#/	sem-	2e\	sem-	1cc#	sem-	2ee\	2ee\
2A\	6	2AA\	.	.	2aa\	.	2A\)	.	2A/	-per	2g#\	per	.	.	2ff#\	2ff#\
=60	=60	=60	=60	=60	=60	=60	=60	=60	=60	=60	=60	=60	=60	=60	=60	=60
2A\	6 4 2	2AA\	2b\	.	2ff#\	.	2A\	-per	2F#/	et	2d#X\	et	2b\	-per	2b/	2ff#\
2G#\	6	2GG#\	2ee\	.	2gg#\	.	4G#\	et	4G#/	in	(4e\	in	4ee\	et	2ee\	2gg#\
.	.	.	.	.	.	.	4G#\	in	4B/	.	4g#\)	.	4ee\	in	.	.
!	!	!	!	!	!LO:PB:g=original	!	!	!	!	!	!	!	!LO:LB:g=original	!	!	!
=61	=61	=61	=61	=61	=61	=61	=61	=61	=61	=61	=61	=61	=61	=61	=61	=61
2F#\	7	2FF#\	2ee\	.	2.aa\	.	2F#\	sae-	2c#\	sae-	2.a\	sae-	2ee\	sae-	2.ff#\	2.aa\
2B\	#7	2BB\	2dd#X\	.	.	.	2B\	-cu-	2d#X\	-cu-	.	.	2dd#X\	-cu-	.	.
.	.	.	.	.	4aa\	.	.	.	.	.	4a\	-cu-	.	.	4ff#\	4aa\
!	!	!	!	!	!	!	!	!	!	!	!	!	!	!	!	!LO:LB:g=original
=62	=62	=62	=62	=62	=62	=62	=62	=62	=62	=62	=62	=62	=62	=62	=62	=62
4r	.	4r	2ee\	.	4gg#\	.	4E\	-la	2B\	-la	4f#\	-la	2ee\	-la	2ee\	2gg#\
4E\	.	4EE\	.	.	4gg#\	.	4E\	sae-	.	.	4g#\	sae-	.	.	.	.
4G#\	.	4GG#\	2r	.	4bb\	.	4G#\	-cu-	2r	.	4b\	.	2r	.	2r	2r
4E\	.	4EE\	.	.	4gg#\	.	4E\	-lo-	.	.	4g#\	-cu-	.	.	.	.
!	!	!LO:LB:g=original	!	!	!	!	!	!	!LO:LB:g=original	!	!	!	!	!	!	!
=63	=63	=63	=63	=63	=63	=63	=63	=63	=63	=63	=63	=63	=63	=63	=63	=63
2B\	5 43	2BB\	4r	.	2ff#\	.	2B\	-rum	4r	.	2f#\	-lo-	4r	.	4r	4r
.	.	.	2b\	.	.	.	.	.	2B\	sae-	.	.	2b\	sae-	2b/	2ff#\
2BB/	#	2BBB/	.	.	2r	.	2BB/	.	.	.	2f#\	-rum	.	.	.	.
.	.	.	4dd#X\	.	.	.	.	.	4B\	-cu-	.	.	4dd#X\	-cu-	4ff#\	4bb\
!LO:LB:g=original	!	!	!	!	!	!	!LO:LB:g=original	!	!	!	!LO:LB:g=original	!	!	!	!	!
=64	=64	=64	=64	=64	=64	=64	=64	=64	=64	=64	=64	=64	=64	=64	=64	=64
!	!	!	!	!	!	!	!	!	!	!	!	!	!	!	!	!LO:N:vis=8
4r	.	4r	2ee\	.	4r	.	4r	.	2B\	-lo-	4r	.	2ee\	-lo-	4ee\	4gg#\L
!	!	!	!	!	!	!	!	!	!	!	!	!	!	!	!	!LO:N:vis=8
4E\	.	4EE\	.	.	4gg#\	.	4E\	sae-	.	.	4g#\	A-	.	.	4ee\	4gg#\
!	!	!	!LO:LB:g=original	!	!	!	!	!	!	!	!	!	!	!	!	!LO:N:vis=8
4G#\	.	4GG#\	2dd#\	.	4bb\	.	4G#\	-cu-	2B\	-rum	4b\	.	2ddn\	-rum	4ee\	4gg#\
!	!	!	!	!	!	!	!	!	!	!	!	!	!	!	!	!LO:N:vis=8
4E\	.	4EE\	.	.	4gg#\	.	4E\	.	.	.	4g#\	.	.	.	4ee\	4gg#\J
!	!	!	!	!	!	!	!	!	!	!	!	!	!	!	!LO:LB:g=original	!
=65	=65	=65	=65	=65	=65	=65	=65	=65	=65	=65	=65	=65	=65	=65	=65	=65
2A\	7	2AA\	4r	.	2gg#\	.	2A\	-lo-	2c#\	a-	2g#\	.	4r	.	2ee\	2ee\
.	.	.	4cc#\	.	.	.	.	.	.	.	.	.	4cc#\	a-	.	.
2AA/	6	2AAA/	4ee\	.	2ff#\	.	2AA/	-rum	2c#\	-men	2f#\	-men	4ee\	.	2r	2r
.	.	.	4cc#\	.	.	.	.	.	.	.	.	.	4cc#\	.	.	.
=66	=66	=66	=66	=66	=66	=66	=66	=66	=66	=66	=66	=66	=66	=66	=66	=66
!	!	!	!	!	!	!	!	!	!	!	!	!	!	!	!LO:TX:a:t=2	!LO:TX:a:t=2
4r	.	4r	2ff#\	.	4r	.	4r	.	4r	.	4r	.	2ff#\	.	0r	0r
*	*	*	*	*	*	*	*	*ij	*	*ij	*	*ij	*	*	*	*
4F#\	.	4FF#\	.	.	4aa\	.	(4F#\	sae-	2c#\	a-	4a\	A-	.	.	.	.
4A\	6	4AA\	2ee\	.	4ccc#\	.	4A\)	.	.	.	4cc#\	.	2ff#\	-men	.	.
4F#\	.	4FF#\	.	.	4aa\	.	4F#\	-cu-	4c#\	-men	4a\	.	.	.	.	.
=67	=67	=67	=67	=67	=67	=67	=67	=67	=67	=67	=67	=67	=67	=67	=67	=67
2B\	7	2BB\	4r	.	2aa\	.	2B\	-lo-	2d#X\	a-	2a\	.	4r	.	.	.
*	*	*	*	*	*	*	*	*	*	*	*	*	*	*ij	*	*
.	.	.	4dd#\	.	.	.	.	.	.	.	.	.	4dd#X\	a-	.	.
2BB/	6	2BBB/	4ff#\	.	2gg#\	.	2BB/	-rum	2d#\	-men	2g#\	-men	4ff#\	.	.	.
.	.	.	4dd#\	.	.	.	.	.	.	.	.	.	4dd#\	.	.	.
*	*	*	*	*	*	*	*	*Xij	*	*	*	*Xij	*	*	*	*
!	!	!	!	!	!	!	!	!	!	!	!	!	!LO:LB:g=original	!	!	!
=68	=68	=68	=68	=68	=68	=68	=68	=68	=68	=68	=68	=68	=68	=68	=68	=68
4r	.	4r	4gg#\	.	4r	.	4r	.	4r	.	4r	.	2.gg#\	.	4r	4r
4G#\	5	4GG#\	2gg#\	.	2bb\	.	4G#\	a-	2d\	a-	2e\	A-	.	.	2gg#\	4bb\
4B\	6	4BB\	.	.	.	.	4B\	.	.	.	.	.	.	.	.	2bb\
4G#\	.	4GG#\	4ff#\	.	4bb\	.	4G#\	.	4d\	-men	4b\	.	4ff#\	.	4ff#\	.
*	*	*	*	*	*	*	*	*	*	*Xij	*	*	*	*	*	*
!	!	!	!	!	!LO:LB:g=original	!	!	!	!	!	!	!	!	!	!	!
=69	=69	=69	=69	=69	=69	=69	=69	=69	=69	=69	=69	=69	=69	=69	=69	=69
2C#/	7	2CC#/	2ee\	.	2bb\	.	2c#\	.	2e\	a-	2b\	.	2ee\	.	2gg#\	2bb\
!	!	!LO:LB:g=original	!	!	!	!	!	!	!	!	!	!	!	!	!	!
2D#X/	56	2DD#X/	[2ff#\	.	[2aa\	.	2C#/	-men	2B\	-men	2a\	.	2ff#\	.	2ff#\	2aa\
!	!	!	!	!	!	!	!	!	!LO:LB:g=original	!	!	!	!	!	!	!
=70	=70	=70	=70	=70	=70	=70	=70	=70	=70	=70	=70	=70	=70	=70	=70	=70
*	*	*	*	*	*	*	*	*	*	*ij	*	*	*	*	*	*
2.E\	4 9	2.EE\	4ff#\]	.	2aa\]	.	2.E\	A-	2.B\	a-	2a\	.	4ff#\	.	2ff#\	2aa\
.	.	.	4b\	.	.	.	.	.	.	.	.	.	4b\	.	.	.
.	.	.	2ee\	.	2gg#\	.	.	.	.	.	2g#\	.	2ee\	.	2ee\	2gg#\
4G#\	-56	4GG#\	.	.	.	.	4F#\	.	4B\	-men	.	.	.	.	.	.
*	*	*	*	*	*	*	*	*	*	*Xij	*	*	*	*	*	*
!	!	!	!LO:LB:g=original	!	!	!	!	!	!	!	!LO:LB:g=original	!	!	!	!	!
=71	=71	=71	=71	=71	=71	=71	=71	=71	=71	=71	=71	=71	=71	=71	=71	=71
4A\	.	4AA\	4ee\	.	4ff#\	.	4A\	.	2c#\	a-	1f#	.	(2.ee\	.	4ee\	4ff#\
4F#\	.	4FF#\	4ee\	.	4ff#\	.	4F#\	.	.	.	.	.	.	.	4ee\	4ff#\
4B\	4	4BB\	4ee\	.	4gg#\	.	4B\	.	2B\	.	.	.	.	.	4ee\	4gg#\
4BB/	#	4BBB/	4dd#X\	.	8ff#\L	.	4BB/	.	.	.	.	.	4dd#X\)	.	4b/	8ff#\L
.	.	.	.	.	8ee\J	.	.	.	.	.	.	.	.	.	.	8ee\J
!LO:LB:g=original	!	!	!	!	!	!	!LO:LB:g=original	!	!	!	!	!	!	!	!	!
=72	=72	=72	=72	=72	=72	=72	=72	=72	=72	=72	=72	=72	=72	=72	=72	=72
4E\	.	4EE\	4ee\	.	4ee\	.	4E\	-men	2B\	-men	4g#\	.	4ee\	.	4g#/	4ee\
*	*	*	*	*	*	*	*	*ij	*	*	*	*	*	*	*	*
4E\	.	4EE\	4g#/	.	4ee\	.	4E\	A-	.	.	2f#\	.	2ee\	.	4e/	4ee\
4F#\	.	4FF#\	4a/	.	4ee\	.	4F#\	.	4r	.	.	.	.	.	4e/	4ee\
4G#\	6	4GG#\	4b/	.	4ee\	.	4G#\	.	4B\	a-	4e\	.	4ee\	.	4e/	4ee\
!	!	!	!	!	!	!	!	!	!	!	!	!	!	!	!	!LO:LB:g=original
=73	=73	=73	=73	=73	=73	=73	=73	=73	=73	=73	=73	=73	=73	=73	=73	=73
4A\	.	4AA\	4cc#\	.	4ee\	.	4A\	.	4c#\	.	2.e\	.	2ee\	.	4e/	4ee\
4G#\	6	4GG#\	4b\	.	4ee\	.	4G#\	.	4B\	.	.	.	.	.	4e/	4ee\
4A\	.	4AA\	4cc#\	.	4ee\	.	4A\	.	4c#\	.	.	.	2dd#X\	.	4e/	4ee\
4F#\	6\	4FF#\	4dd#X\	.	4aa\	.	4F#\	.	4A\	.	4a\	.	.	.	4b/	4aa\
!	!	!	!	!	!	!	!	!	!	!	!	!	!	!	!LO:LB:g=original	!
=74	=74	=74	=74	=74	=74	=74	=74	=74	=74	=74	=74	=74	=74	=74	=74	=74
2E\	.	2EE\	4ee\	.	4gg#\	.	2E\	-men	2B\	-men	2g#\	-men	2ee\	-men	4dd#\	4gg#\
.	.	.	4e/	.	4g#/	.	.	.	.	.	.	.	.	.	4dd#\	4gg#\
2r	.	2r	4f#/	.	4a/	.	2r	.	2r	.	2r	.	2r	.	4ff#\	4aa\
.	.	.	4g#/	.	4b/	.	.	.	.	.	.	.	.	.	4gg#\	4bb\
*	*	*	*	*	*	*	*	*Xij	*	*	*	*	*	*Xij	*	*
=75	=75	=75	=75	=75	=75	=75	=75	=75	=75	=75	=75	=75	=75	=75	=75	=75
!LO:TX:a:t=1	!	!	!	!	!	!	!	!	!	!	!	!	!	!	!	!
1r	.	1r	4a/	.	4cc#\	.	1r	.	1r	.	1r	.	1r	.	4aa\	4ccc#\
.	.	.	4g#/	.	4b\	.	.	.	.	.	.	.	.	.	4gg#\	4bb\
.	.	.	4a/	.	4cc#\	.	.	.	.	.	.	.	.	.	4aa\	4ccc#\
.	.	.	4e/	.	4a/	.	.	.	.	.	.	.	.	.	4ff#\	4aa\
!	!	!	!	!	!	!	!	!	!	!	!	!	!LO:LB:g=original	!	!	!
=76	=76	=76	=76	=76	=76	=76	=76	=76	=76	=76	=76	=76	=76	=76	=76	=76
!LO:N:vis=0	!	!	!	!	!	!	!	!	!	!	!	!	!	!	!	!
1E	.	[1EE	[1e	.	1g#	.	1E	a-	1B	a-	1g#	A-	1ee	A-	[1ee	1gg#
=77	=77	=77	=77	=77	=77	=77	=77	=77	=77	=77	=77	=77	=77	=77	=77	=77
1Eyy	.	1EE]	1e]	.	1ryy	.	1E	-men.	1B	-men.	1g#	-men.	1ee	-men.	1ee]	1gg#
==	==	==	==	==	==	==	==	==	==	==	==	==	==	==	==	==
*-	*-	*-	*-	*-	*-	*-	*-	*-	*-	*-	*-	*-	*-	*-	*-	*-
!!!system-decoration: [(s1,s2)][(s3,s4,s5,s6)][(s7,s8,s9)]s10
!!!ENC: Andrzej Gręziak
!!!END: 2024-05-21
!!!ENC: Leszek Kubiak
!!!END: 2024-08-27
